!!!!SEGMENT: pl-sa--268-a-vii-28--002_siwinski-andrzej--salve-arca-federis.krn
!!!cenid: 17xx:314
!!!COM: Siwiński, Andrzej
!!!COM-rismID: pe41011487
!!!CDT: <1725->1725
!!!CNT:
!!!OTL: Salve arca federis
!!!PDT: 1729
!!!AGN: Sacred
!!!SMS-siglum: PL-SA
!!!SMS-shelfmark: 268/A VII 28
!!!SMS-shelfwork: 002 W
!!!NIFC-rismSourceID: 1001069564
!!!NIFC-rismChildID: 1001069564
!!!NIFC-islandoraID:
!!!URL-pdf-islandora:
!!!URL-scan: https://bc.bdsandomierz.pl/dlibra/publication/1751/edition/1719/content @EN{Scan in the Sandomierz Diocese Digital Library} @PL{Skany w portalu Cyfrowa Biblioteka Diecezjalna w Sandomierzu}
!!!ONB-nifc:
!!!AIN: 1 alto 1 empty 1 organ 1 tenor 2 violn 1 vox
!!!key:
**kern	**fba	**kern	**kern	**dynam	**kern	**text	**kern	**text	**kern	**text	**kern	**text	**dynam
*part7	*	*part6	*part5	*part5	*part4	*part4	*part3	*part3	*part2	*part2	*part1	*part1	*part1
*staff7	*	*staff6	*staff5	*	*staff4	*staff4	*staff3	*staff3	*staff2	*staff2	*staff1	*staff1	*
*Iorgan	*	*Ivioln	*Ivioln	*	*Iempty	*	*Itenor	*	*Ialto	*	*Ivox	*	*
*I"Organo	*	*I"Violino 2do	*I"Violino 1mo	*	*I"Baſso	*	*I"Tenore.	*	*I"Alto	*	*I"Canto	*	*
*	*	*I'vl 2	*I'vl 1	*	*I'B	*	*I'T	*	*I'A	*	*I'S	*	*
*clefF4	*	*clefG2	*clefG2	*	*clefF4	*	*clefC4	*	*clefC3	*	*clefC1	*	*
*k[f#c#]	*	*k[f#c#]	*k[f#c#]	*	*k[f#c#]	*	*k[f#c#]	*	*k[f#c#]	*	*k[f#c#]	*	*
*b:	*	*b:	*b:	*	*b:	*	*b:	*	*b:	*	*b:	*	*
*M2/2	*	*M2/2	*M2/2	*	*M2/2	*	*M2/2	*	*M2/2	*	*M2/2	*	*
*met(C.)	*	*met(c|)	*met(c|)	*	*met(c|)	*	*met(C.)	*	*met(c|)	*	*met(C.)	*	*
=1	=1	=1	=1	=1	=1	=1	=1	=1	=1	=1	=1	=1	=1
!	!	!LO:TX:i:a:t=Motteto 2do:rj	!	!	!	!	!LO:TX:a:t=P:problem= Napis "Mottetto 2do" znajuje się przed metrum na pięciolinii	!	!	!	!LO:TX:a:t=P:problem= Napis "Motetto 2do" znajuje się przed metrum na pięciolinii	!	!
!	!	!	!LO:TX:a:t=P:problem=znaki przykluczowe&colon; krzyżyki jeden nad drugim	!	!	!	!	!	!	!	!	!	!
!	!	!	!LO:TX:a:t=P:problem=wszystkie nuty mają zawsze laski z prawej strony	!	!	!	!	!	!	!	!	!	!
!LO:TX:a:t=P:problem=krzyżyk jeden nad drugim	!	!LO:TX:a:t=P:problem=mixed beam	!LO:TX:i:a:t=Motteto 2do:rj	!	!	!	!	!	!	!	!LO:TX:a:t=P:problem=w zapisie całej partii laski w dół wychodzą mniej więcej od środka główki	!	!
!LO:TX:a:t=P:problem= Napis "Mottetto 2do" znajuje się przed metrum na pięciolinii	!	!	!	!	!	!	!	!	!	!	!	!	!
!LO:TX:i:b:t=Salve arca federis	!	!LO:TX:i:a:t=Solo	!LO:TX:i:b:t=Salve arca federis	!	!	!	!	!	!LO:TX:a:t=P:problem=krzyżyki jeden nad drugim	!	!LO:TX:a:i:t=Motetto\n2.do:rj	!	!
!LO:TX:i:a:t=Solo	!	!LO:TX:b:i:t=Salve arca	!LO:TX:a:t=P:problem=mixed beam	!	!	!	!LO:TX:a:t=P:problem=w zapisie całej partii laski w dół wychodzą mniej więcej od środka główki	!	!LO:TX:i:a:t=Motetto\n2do:rj	!	!LO:TX:a:t=P::problem=kolejność znaków przykluczowych&colon; cc#, f#	!	!
!LO:TX:i:a:t=Mottetto\n2do:rj	!	!LO:TX:a:t=P:problem=w pierwszej linijce brak znaków przykluczowych, w pozostałych f#, cc#, ff# (jeden nad drugim)	!LO:TX:i:a:t=Solo	!	!LO:TX:a:t=P:problem=krzyżyki albo jeden nad drugim, albo najpier C#, a potem F#	!	!LO:TX:i:a:t=Motetto\n2do:rj	!	!LO:TX:a:t=P:problem=metrum alla breve	!	!	!	!
4BB/	.	8dd\L	8ff#\L	.	00r	.	00r	.	00r	.	00r	.	.
.	.	8d/	8f#/	.	.	.	.	.	.	.	.	.	.
8r	.	8dd\	8ff#\	.	.	.	.	.	.	.	.	.	.
8E\	.	8ee\J	8gg\J	.	.	.	.	.	.	.	.	.	.
4B\	.	16dd\LL	16ff#\LL	.	.	.	.	.	.	.	.	.	.
.	.	16cc#\	16ee\	.	.	.	.	.	.	.	.	.	.
.	.	16b\	16dd\	.	.	.	.	.	.	.	.	.	.
.	.	16a\JJ	16cc#\JJ	.	.	.	.	.	.	.	.	.	.
8r	.	8dd\L	8b\L	.	.	.	.	.	.	.	.	.	.
8F#\	.	8cc#\J	8a#X\J	.	.	.	.	.	.	.	.	.	.
=2	=2	=2	=2	=2	=2	=2	=2	=2	=2	=2	=2	=2	=2
!LO:SIC:s=8B	!	!	!	!	!	!	!	!	!	!	!	!	!
8B#X\L	.	8dd\L	8b\L	.	.	.	.	.	.	.	.	.	.
8A#X\	X 6	8ff#\	8cc#\J	.	.	.	.	.	.	.	.	.	.
!LO:SIC:s=8B	!	!	!	!	!	!	!	!	!	!	!	!	!
8B#\	.	8ff#\	8dd\L	.	.	.	.	.	.	.	.	.	.
8Gn\J	X 6	8gg\J	16cc#\L	.	.	.	.	.	.	.	.	.	.
.	.	.	16b\JJ	.	.	.	.	.	.	.	.	.	.
!	!	!	!LO:TX:a:t=P:problem=mixed beam	!	!	!	!	!	!	!	!	!	!
8F#\L	.	4ff#\	8cc#\L	.	.	.	.	.	.	.	.	.	.
8G#X\	.	.	8f#/J	.	.	.	.	.	.	.	.	.	.
8A#X\	X 6	8r	8r	.	.	.	.	.	.	.	.	.	.
8F#\J	.	8a#X/	8cc#\	.	.	.	.	.	.	.	.	.	.
=3	=3	=3	=3	=3	=3	=3	=3	=3	=3	=3	=3	=3	=3
4B\	.	8b/L	8dd\L	.	.	.	.	.	.	.	.	.	.
.	.	8a#X/J	8cc#\J	.	.	.	.	.	.	.	.	.	.
*	*	*	*Xtuplet	*	*	*	*	*	*	*	*	*	*
8r	.	16b/LL	24dd\LL	.	.	.	.	.	.	.	.	.	.
.	.	.	24ee\	.	.	.	.	.	.	.	.	.	.
.	.	16b/	.	.	.	.	.	.	.	.	.	.	.
.	.	.	24dd\JJ	.	.	.	.	.	.	.	.	.	.
8F#\	.	16a#X/	24cc#\LL	.	.	.	.	.	.	.	.	.	.
.	.	.	24dd\	.	.	.	.	.	.	.	.	.	.
.	.	16a#/JJ	.	.	.	.	.	.	.	.	.	.	.
.	.	.	24cc#\JJ	.	.	.	.	.	.	.	.	.	.
8B\L	.	8b/L	8dd\L	.	.	.	.	.	.	.	.	.	.
8A#X\	X 6	8a#X/J	8cc#\J	.	.	.	.	.	.	.	.	.	.
8B\	.	8r	8r	.	.	.	.	.	.	.	.	.	.
8F#\J	.	8a#X/	8cc#\	.	.	.	.	.	.	.	.	.	.
=4	=4	=4	=4	=4	=4	=4	=4	=4	=4	=4	=4	=4	=4
4BB/	.	8b/L	8dd\L	.	.	.	.	.	.	.	.	.	.
.	.	8a#X/J	8cc#\J	.	.	.	.	.	.	.	.	.	.
8r	.	16b/LL	24dd\LL	.	.	.	.	.	.	.	.	.	.
.	.	.	24ee\	.	.	.	.	.	.	.	.	.	.
.	.	16b/	.	.	.	.	.	.	.	.	.	.	.
.	.	.	24dd\JJ	.	.	.	.	.	.	.	.	.	.
8F#\	.	16a#X/	24cc#\LL	.	.	.	.	.	.	.	.	.	.
.	.	.	24dd\	.	.	.	.	.	.	.	.	.	.
.	.	16a#/JJ	.	.	.	.	.	.	.	.	.	.	.
.	.	.	24cc#\JJ	.	.	.	.	.	.	.	.	.	.
8B\L	.	8b/L	8dd\L	.	.	.	.	.	.	.	.	.	.
!LO:SIC:s=8A#	!	!	!	!	!	!	!	!	!	!	!	!	!
8A\	.	8a#X/J	8cc#\J	.	.	.	.	.	.	.	.	.	.
8G\	.	8dd\L	8ff#\L	.	.	.	.	.	.	.	.	.	.
8F#\J	.	8cc#X\J	16gg\L	.	.	.	.	.	.	.	.	.	.
.	.	.	16aa\JJ	.	.	.	.	.	.	.	.	.	.
!LO:LB:g=original	!	!	!	!	!	!	!	!	!	!	!	!	!
=5	=5	=5	=5	=5	=5	=5	=5	=5	=5	=5	=5	=5	=5
!LO:TX:a:t=P:problem=mixed beam	!	!	!	!	!	!	!	!	!	!	!	!	!
8E\L	.	8b\L	16gg\LL	.	2r	.	2r	.	2r	.	2r	.	.
.	.	.	16ff#\	.	.	.	.	.	.	.	.	.	.
8C#\	.	8cc#\J	16ee\	.	.	.	.	.	.	.	.	.	.
.	.	.	16dd\JJ	.	.	.	.	.	.	.	.	.	.
8F#\	X 4	4a#X/	8.cc#\L	.	.	.	.	.	.	.	.	.	.
8FF#/J	X 3	.	.	.	.	.	.	.	.	.	.	.	.
.	.	.	16b\Jk	.	.	.	.	.	.	.	.	.	.
4BB/	.	4b/	4b\	.	4r	.	4r	.	4r	.	4r	.	.
!LO:TX:i:a:t=Tutti	!	!	!	!	!	!	!	!	!LO:TX:i:a:t=Tutti:rj	!	!	!	!
8B\L	.	4r	4r	.	8B\	Sal-	8B\	Sal-	8f#\	Sal-	8dd\	Sal-	.
8A#X\J	X 6	.	.	.	8A#X\	-ve	8c#\	-ve	8f#\	-ve	8cc#\	-ve	.
!	!	!LO:LB:g=original	!	!	!	!	!	!	!	!	!	!	!
=6	=6	=6	=6	=6	=6	=6	=6	=6	=6	=6	=6	=6	=6
*	*	*	*	*	*	*ij	*	*ij	*	*ij	*	*ij	*
8B\L	.	4r	4r	.	8B\	Sal-	8B\	Sal-	8f#\	Sal-	8dd\	Sal-	.
8F#\J	.	.	.	.	8F#\	-ve	8A#X\	-ve	8f#\	-ve	8cc#\	-ve	.
*	*	*	*	*	*	*Xij	*	*Xij	*	*Xij	*	*Xij	*
!	!	!	!LO:LB:g=original	!	!	!	!	!	!	!	!	!	!
4r	.	8b/L	24dd\LL	.	4r	.	4r	.	4r	.	4r	.	.
.	.	.	24ee\	.	.	.	.	.	.	.	.	.	.
.	.	.	24dd\JJ	.	.	.	.	.	.	.	.	.	.
.	.	8a#X/J	24cc#\LL	.	.	.	.	.	.	.	.	.	.
.	.	.	24dd\	.	.	.	.	.	.	.	.	.	.
.	.	.	24cc#\JJ	.	.	.	.	.	.	.	.	.	.
4r	.	8b/L	8dd\L	.	4r	.	4r	.	4r	.	4r	.	.
.	.	8a#X/J	8cc#\J	.	.	.	.	.	.	.	.	.	.
8B\L	.	4r	4r	.	8B\	Sal-	8B\	Sal-	8f#\	Sal-	8dd\	Sal-	.
8A#X\J	X 6	.	.	.	8A#X\	-ve	8c#\	-ve	8f#\	-ve	8cc#\	-ve	.
=7	=7	=7	=7	=7	=7	=7	=7	=7	=7	=7	=7	=7	=7
*	*	*	*	*	*	*ij	*	*ij	*	*ij	*	*ij	*
8B\L	.	4r	4r	.	8B\	Sal-	8B\	Sal-	8f#\	Sal-	8dd\	Sal-	.
8F#\J	.	.	.	.	8F#\	-ve	8A#X/	-ve	8f#\	-ve	8cc#\	-ve	.
8BB/L	.	8dd\L	8ff#\L	.	8BB/	Sal-	8B\	Sal-	8f#\	Sal-	8dd\	Sal-	.
8C#/	.	8cc#\J	8ff#\J	.	8C#/	-ve	8c#\	-ve	8e\	-ve	8cc#\	-ve	.
*	*	*	*	*	*	*Xij	*	*Xij	*	*Xij	*	*Xij	*
8D/	.	8b\L	8ff#\L	.	8D/	ar-	8d\	ar-	8d\	ar-	8.b\	ar-	.
8BB/J	.	8dd\	8ff#\	.	8BB/	-ca.	8B\	-ca	(>16d\LL	-ca	.	.	.
.	.	.	.	.	.	.	.	.	16e\JJ)	.	16b\	-ca	.
!LO:TX:a:t=P:problem=niejednoznaczny zapis w bc	!	!	!	!	!	!	!	!	!	!	!	!	!
8.F#\L	4 2	8.cc#\	8ff#\	.	8.F#\	Fe-	8.A#X\	fe-	8.f#\	fe-	8.cc#\	Fe-	.
.	.	.	8ee#X\J	.	.	.	.	.	.	.	.	.	.
16F#\Jk	.	16cc#\Jk	.	.	16F#\	-de-	16A#\	-de-	16f#\	-de-	16cc#\	-de-	.
!	!	!	!	!	!	!	!LO:PB:g=original	!	!	!	!	!	!
=8	=8	=8	=8	=8	=8	=8	=8	=8	=8	=8	=8	=8	=8
!	!	!	!	!	!	!	!LO:SIC:s=4A#	!	!	!	!	!	!
4F#\	.	4cc#\	4ff#\	.	4F#\	-ris	4A\	-ris	4f#\	-ris	4cc#\	-ris	.
!	!	!LO:SIC:s==8dd	!	!	!	!	!	!	!	!	!	!	!
8B\L	.	8ee\L	8ff#\L	.	8B\	thro-	8B\	tro-	8f#\	tro-	8dd\	thro-	.
8A\J	X 6	8cc#\	8ee\J	.	8A#X\	-n(us)	8c#\	-nus	8f#\	-n(us)	8cc#\	-n(us)	.
!LO:TX:a:t=P:problem=mixed beam	!	!	!	!	!	!	!	!	!	!	!	!	!
8G\L	X 6	8b\	8dd\L	.	8G\	Sa-	8d\	Sa-	8g\	Sa-	8b\	Sa-	.
!	!	!	!	!	!	!	!	!	!	!	!LO:LB:g=original	!	!
!	!	!	!	!	!LO:LB:g=original	!	!	!	!	!	!	!	!
8E\	X 5	8cc#\J	8b\J	.	8E\	-la-	8e\	-la-	8g\	-la-	8cc#\	-la-	.
8F#\	X 4	4a#X/	8.cc#\L	.	4F#\	-mo-	4c#\	-mo-	4f#\	-mo-	4a#X\	-mo-	.
8FF#/J	X 3	.	.	.	.	.	.	.	.	.	.	.	.
.	.	.	16b\Jk	.	.	.	.	.	.	.	.	.	.
=9	=9	=9	=9	=9	=9	=9	=9	=9	=9	=9	=9	=9	=9
!LO:TX:i:a:t=Solo	!	!	!	!	!	!	!	!	!	!	!	!	!
4BB/	.	4b/	4b\	.	4BB/	-nis	4B\	-nis	4f#\	-nis	4b\	-nis	.
4r	.	16dd\LL	16ff#\LL	.	4r	.	4r	.	4r	.	4r	.	.
.	.	16cc#\	16ee\	.	.	.	.	.	.	.	.	.	.
.	.	16b\	16dd\	.	.	.	.	.	.	.	.	.	.
!	!	!LO:TX:a:t=P:problem=krzyżyk nad nutą	!	!	!	!	!	!	!	!	!	!	!
.	.	16a#X\JJ	16cc#\JJ	.	.	.	.	.	.	.	.	.	.
16B\LL	.	8b/L	8dd\L	.	2r	.	2rG	.	2rA	.	2re	.	.
16A\	.	.	.	.	.	.	.	.	.	.	.	.	.
16G\	.	8b/J	8b\J	.	.	.	.	.	.	.	.	.	.
16F#\JJ	.	.	.	.	.	.	.	.	.	.	.	.	.
8G\L	X 6	4b/	16ee\LL	.	.	.	.	.	.	.	.	.	.
.	.	.	16dd\	.	.	.	.	.	.	.	.	.	.
8E\J	.	.	16cc#\	.	.	.	.	.	.	.	.	.	.
.	.	.	16b\JJ	.	.	.	.	.	.	.	.	.	.
!	!	!	!	!	!LO:TX:b:t=P:problem=brak kreski taktowej	!	!	!	!LO:LB:g=original	!	!	!	!
=10	=10	=10	=10	=10	=10	=10	=10	=10	=10	=10	=10	=10	=10
16A\LL	.	4a/	8cc#\L	.	1r	.	1rB	.	1r	.	1rg	.	.
16G\	.	.	.	.	.	.	.	.	.	.	.	.	.
16F#\	.	.	8an\J	.	.	.	.	.	.	.	.	.	.
16E\JJ	.	.	.	.	.	.	.	.	.	.	.	.	.
!LO:TX:a:t=P:problem=custos użyty jako łamanie pięciolinii	!	!	!	!	!	!	!	!	!	!	!	!	!
!LO:LB:g=original	!	!	!	!	!	!	!	!	!	!	!	!	!
8F#\L	X 6	8a/L	16dd\LL	.	.	.	.	.	.	.	.	.	.
.	.	.	16ee\	.	.	.	.	.	.	.	.	.	.
8D\J	.	8a/J	16ff#\	.	.	.	.	.	.	.	.	.	.
.	.	.	16dd\JJ	.	.	.	.	.	.	.	.	.	.
8E\L	X 5	8dd\L	16gg\LL	.	.	.	.	.	.	.	.	.	.
.	.	.	16aa\	.	.	.	.	.	.	.	.	.	.
16F#\L	.	8ee\J	16ff#\	.	.	.	.	.	.	.	.	.	.
16G\JJ	.	.	16gg\JJ	.	.	.	.	.	.	.	.	.	.
!LO:TX:a:t=P:problem=mixed beam	!	!	!	!	!	!	!	!	!	!	!	!	!
8A\L	X 4	4cc#X\	8.ee\L	.	.	.	.	.	.	.	.	.	.
.	X 3	.	.	.	.	.	.	.	.	.	.	.	.
8AA/J	.	.	.	.	.	.	.	.	.	.	.	.	.
.	.	.	16dd\Jk	.	.	.	.	.	.	.	.	.	.
!	!	!	!	!	!LO:TX:b:t=P:problem=brak kreski taktowej	!	!	!	!LO:TX:b:t=P:problem=brak kreski taktowej	!	!	!	!
=11	=11	=11	=11	=11	=11	=11	=11	=11	=11	=11	=11	=11	=11
8D\L	.	8dd\L	8dd\L	.	8D\	Ar-	8F#/	Ar-	8f#\	Ar-	8a\	ar-	.
8E\	.	8ff#\	8aa\	.	8E\	-cus	8G/	-cus	8e\	-c(us)	8a\	-c(us)	.
8F#\	.	8ff#\	8aa\	.	8F#\	pul-	8A\	pul-	8f#\	pul-	8a\	pul-	.
8G\J	.	8gg\J	8bb\J	.	8G\	-cher	8B\	-cher	8g\	-cher	8b\	-cher	.
!	!	!	!	!	!	!	!	!	!LO:SIC:s=8.e	!	!	!	!
8.A\L	.	8.cc#X\L	8.ee\L	.	8.An\	ae-	8.c#\	ae-	8.f#\	ae-	8.cc#\	ae-	.
!	!	!LO:SIC:s=16b	!	!	!	!	!	!	!	!	!	!	!
!	!	!LO:N:vis=8	!	!	!	!	!	!	!	!	!	!	!
!LO:TX:a:t=P:problem=niejednoznaczny zapis w bc	!	!	!	!	!	!	!	!	!	!	!	!	!
16A\Jk	4 2	16b\Jk	16ee\Jk	.	16A\	-the-	16A\	-the-	16f#\	-the-	16cc#\	-the-	.
4A\	.	4a/	4ee\	.	4A\	-ris	4A/	-ris	4f#\	-ris	4cc#\	-ris	.
!	!	!LO:LB:g=original	!LO:LB:g=original	!	!	!	!	!	!	!	!	!	!
=12	=12	=12	=12	=12	=12	=12	=12	=12	=12	=12	=12	=12	=12
8B\L	.	8dd\L	8gg\L	.	8B\	ru-	8B\	rob(us)	8g\	ro-	8dd\	ro-	.
8A\	.	8ee\	8aa\	.	8An\	-bus	8c#\	vi-	8a\	-b(us)	8cc#\	-bus	.
8B\	.	8dd\	8ff#\	.	8B\	vi-	8d\	-si-	8g\	vi-	8dd\	vi-	.
8G\J	.	8b\J	8gg\J	.	8G\	-si-	8B\	-o-	8g\	-si-	8dd\	-si-	.
!LO:TX:a:t=P:problem=mixed beam	!	!	!	!	!LO:TX:a:t=P:problem=mixed beam	!	!	!	!	!	!	!	!
8A\L	.	8cc#\L	8ee\L	.	8A\L	-o-	16c#\LL	.	(>8a\L	-o-	16ee\LL	-o-	.
.	.	.	.	.	.	.	16d\	.	.	.	16ff#\	.	.
8G\	6 5	8ee\J	8ff#\J	.	8G\	.	16c#\	.	8e\J)	.	16dd\	.	.
.	.	.	.	.	.	.	16B\JJ	.	.	.	16ee\JJ	.	.
!	!	!	!	!	!	!	!LO:SIC:s=4A	!	!	!	!	!	!
8A\	X 4	4cc#\	8.ee\L	.	8A\	.	4A#X/	.	4e\	-nis	4cc#\	.	.
8AA/J	X 3	.	.	.	8AA/J	.	.	.	.	.	.	.	.
.	.	.	16dd\Jk	.	.	.	.	.	.	.	.	.	.
!	!	!	!	!	!	!	!LO:LB:g=original	!	!	!	!	!	!
=13	=13	=13	=13	=13	=13	=13	=13	=13	=13	=13	=13	=13	=13
4D/	.	4a/	4dd\	.	4D/	-nis	4A/	-nis	4f#\	.	4dd\	-nis	.
4r	.	16ff#\LL	16aa\LL	.	4r	.	4r	.	4r	.	4r	.	.
.	.	16ee\	16gg\	.	.	.	.	.	.	.	.	.	.
.	.	16dd\	16ff#\	.	.	.	.	.	.	.	.	.	.
.	.	16cc#\JJ	16ee\JJ	.	.	.	.	.	.	.	.	.	.
16d\LL	.	4dd\	8ff#\L	.	2r	.	2r	.	2rA	.	2r	.	.
16c#\	.	.	.	.	.	.	.	.	.	.	.	.	.
16B\	.	.	8dd\J	.	.	.	.	.	.	.	.	.	.
16A\JJ	.	.	.	.	.	.	.	.	.	.	.	.	.
8B\L	.	8dd\L	16gg\LL	.	.	.	.	.	.	.	.	.	.
.	.	.	16ff#\	.	.	.	.	.	.	.	.	.	.
8G\J	.	8dd\J	16ee\	.	.	.	.	.	.	.	.	.	.
.	.	.	16dd\JJ	.	.	.	.	.	.	.	.	.	.
!	!	!	!	!	!LO:TX:b:t=P:problem=brak kreski taktowej	!	!LO:TX:b:t=P:problem=brak kreski taktowej	!	!LO:TX:b:t=P:problem=brak kreski taktowej	!	!	!	!
=14	=14	=14	=14	=14	=14	=14	=14	=14	=14	=14	=14	=14	=14
16c#\LL	.	4cc#X\	8ee\L	.	0r	.	0r	.	0r	.	0r	.	.
16B\	.	.	.	.	.	.	.	.	.	.	.	.	.
16A\	.	.	8cc#\J	.	.	.	.	.	.	.	.	.	.
16G\JJ	.	.	.	.	.	.	.	.	.	.	.	.	.
8F#\L	X 6	16dd\LL	16ff#\LL	.	.	.	.	.	.	.	.	.	.
.	.	16ee\	16gg\	.	.	.	.	.	.	.	.	.	.
8D\J	.	16ff#\	16aa\	.	.	.	.	.	.	.	.	.	.
.	.	16dd\JJ	16ff#\JJ	.	.	.	.	.	.	.	.	.	.
!LO:TX:a:t=P:problem=mixed beam	!	!	!	!	!	!	!	!	!	!	!	!	!
8G\L	.	8gg\L	16bb\LL	.	.	.	.	.	.	.	.	.	.
.	.	.	16aa\	.	.	.	.	.	.	.	.	.	.
8E\	.	8b\J	16gg\	.	.	.	.	.	.	.	.	.	.
.	.	.	16ff#\JJ	.	.	.	.	.	.	.	.	.	.
8A\	.	8.cc#X\L	8.ee\L	.	.	.	.	.	.	.	.	.	.
8AA/J	.	.	.	.	.	.	.	.	.	.	.	.	.
.	.	16dd\Jk	16dd\Jk	.	.	.	.	.	.	.	.	.	.
=15	=15	=15	=15	=15	=15	=15	=15	=15	=15	=15	=15	=15	=15
4D/	.	4dd\	4dd\	.	.	.	.	.	.	.	.	.	.
4r	.	16dd\LL	16ff#\LL	.	.	.	.	.	.	.	.	.	.
.	.	16cc#\	16ee\	.	.	.	.	.	.	.	.	.	.
.	.	16b\	16dd\	.	.	.	.	.	.	.	.	.	.
.	.	16a\JJ	16cc#\JJ	.	.	.	.	.	.	.	.	.	.
!LO:LB:g=original	!	!	!	!	!	!	!	!	!	!	!	!	!
16B\LL	.	4b\	8dd\L	.	.	.	.	.	.	.	.	.	.
16A\	.	.	.	.	.	.	.	.	.	.	.	.	.
16G\	.	.	8b\J	.	.	.	.	.	.	.	.	.	.
16F#\JJ	.	.	.	.	.	.	.	.	.	.	.	.	.
8G\L	X 6	8b\L	16ee\LL	.	.	.	.	.	.	.	.	.	.
.	.	.	16dd\	.	.	.	.	.	.	.	.	.	.
8E\J	.	8b\J	16cc#\	.	.	.	.	.	.	.	.	.	.
.	.	.	16b\JJ	.	.	.	.	.	.	.	.	.	.
!	!	!	!	!	!LO:TX:b:t=P:problem=brak kreski taktowej	!	!LO:TX:b:t=P:problem=brak kreski taktowej	!	!LO:TX:b:t=P:problem=brak kreski taktowej	!	!	!	!
=16	=16	=16	=16	=16	=16	=16	=16	=16	=16	=16	=16	=16	=16
16F#\LL	X #	8a#X/L	8cc#\L	.	1r	.	1r	.	1r	.	1r	.	.
16G#X\	.	.	.	.	.	.	.	.	.	.	.	.	.
16A#X\	.	8f#/	8a#X\J	.	.	.	.	.	.	.	.	.	.
16F#\JJ	.	.	.	.	.	.	.	.	.	.	.	.	.
4B\	.	8f#/	16b\LL	.	.	.	.	.	.	.	.	.	.
.	.	.	16cc#\	.	.	.	.	.	.	.	.	.	.
.	.	8f#/J	16dd\	.	.	.	.	.	.	.	.	.	.
.	.	.	16ee\JJ	.	.	.	.	.	.	.	.	.	.
!LO:TX:a:t=P:problem=mixed beam	!	!	!	!	!	!	!	!	!	!	!	!	!
8G#\L	.	8b\L	16ff#\LL	.	.	.	.	.	.	.	.	.	.
.	.	.	16ee\	.	.	.	.	.	.	.	.	.	.
8E\	.	8cc#\J	16dd\	.	.	.	.	.	.	.	.	.	.
.	.	.	16ee\JJ	.	.	.	.	.	.	.	.	.	.
8F#\	X 4	4a#X/	8.cc#\L	.	.	.	.	.	.	.	.	.	.
8FF#/J	X 3	.	.	.	.	.	.	.	.	.	.	.	.
.	.	.	16b\Jk	.	.	.	.	.	.	.	.	.	.
!	!	!	!	!	!LO:TX:b:t=P:problem=brak kreski taktowej	!	!	!	!LO:TX:b:t=P:problem=brak kreski taktowej	!	!	!	!
=17	=17	=17	=17	=17	=17	=17	=17	=17	=17	=17	=17	=17	=17
8BB/L	.	8b\L	8b\L	.	8BB/	ar-	8B\	Ar-	8f#\	Ar-	8dd\	ar-	.
!	!	!	!LO:SIC:s=8cc#	!	!	!	!	!	!	!	!	!	!
8C#/	.	8cc#\	8dd\	.	8C#/	-cus	8c#\	-cus	8f#\	-cus	8cc#\	-cus	.
8D/	.	8dd\	8dd\	.	8D\	pul-	8d\	pul-	8f#\	pul-	8dd\	pul-	.
8E/J	.	8b\J	8gg\J	.	8E\	-cher	8B\	-cher	8g\	-cher	8ee\	-cher	.
!	!	!	!	!	!	!	!	!	!	!	!LO:LB:g=original	!	!
!	!	!	!	!	!LO:LB:g=original	!	!	!	!	!	!	!	!
!	!	!	!LO:LB:g=original	!	!	!	!	!	!	!	!	!	!
8.F#\L	.	8.cc#X\L	8.aa#X\L	.	8.F#\	e-	8.A#X\	ae-	8.f#\	ae-	8.cc#\	ae-	.
16F#\Jk	4 2	16cc#\Jk	16aa#\Jk	.	16F#\	-the-	16A#\	-the-	16f#\	-the-	16cc#\	-the-	.
!	!	!LO:LB:g=original	!	!	!	!	!	!	!	!	!	!	!
4F#\	.	4cc#\	4aa#\	.	4F#\	-ris	4A#/	-ris	4f#\	-ris	4cc#\	-ris	.
!	!	!	!	!	!	!	!	!	!LO:LB:g=original	!	!	!	!
=18	=18	=18	=18	=18	=18	=18	=18	=18	=18	=18	=18	=18	=18
8G\L	X 6_	8dd\L	8bb\L	.	8G\	ru-	8Gn/	ro-	8d\	ro-	8b\	ro-	.
8F#\	.	8cc#\	8aan\	.	8F#\	-bus	8An/	-b(us)	8d\	-bus	8b\	-bus	.
8G\	x	8dd\	8bb\	.	8G\	vi-	8B\	vi-	8d\	vi-	8b\	vi-	.
8E\J	.	8ee\J	8gg\J	.	8E\	-si-	8G/	-si-	8e\	-si-	8b\	-si-	.
!LO:TX:a:t=P:problem=mixed beam	!	!	!	!	!LO:TX:a:t=P:problem=mixed beam	!	!	!	!	!	!	!	!
8F#\L	X 6	8cc#\L	8ff#\L	.	8F#\L	-o-	8A#XL\	-o-	8f#\L	-o-	16cc#\LL	-o-	.
.	.	.	.	.	.	.	.	.	.	.	16dd\	.	.
8E\	X 5	8dd\J	8gg\J	.	8E\	.	8BJ\	.	8g\J	.	16b\	.	.
.	.	.	.	.	.	.	.	.	.	.	16cc#\JJ	.	.
8F#\	X 4	4cc#\	4ff#\	.	8F#\	.	4c#\	.	4f#\	-nis	4a#X\	.	.
8FF#/J	X 3	.	.	.	8FF#/J	.	.	.	.	.	.	.	.
=19	=19	=19	=19	=19	=19	=19	=19	=19	=19	=19	=19	=19	=19
!	!	!	!LO:SIC:s=4dd	!	!	!	!	!	!	!	!	!	!
4BB/	.	4b\	4dd#X\	.	4BB/	-nis	4B\	-nis	4f#\	vi-	4b\	-nis	.
8B\L	.	4r	4r	.	8B\	vi-	8B\	vi-	8f#\	-si-	8dd\	vi-	.
8A#X\J	X 6	.	.	.	8A#X\	-si-	8c#\	-si-	8f#\	-o-	8cc#\	-si-	.
8B\L	.	4r	4r	.	8B\	-o-	8B\	-o-	8f#\	-nis	8dd\	-o-	.
8F#\J	.	.	.	.	8F#\	-nis	8A#X/	-nis	8f#\	.	8cc#\	-nis	.
4r	.	16b/LL	24dd#\LL	.	4r	.	4r	.	4r	.	4r	.	.
.	.	.	24ee\	.	.	.	.	.	.	.	.	.	.
.	.	16b/	.	.	.	.	.	.	.	.	.	.	.
.	.	.	24dd#\JJ	.	.	.	.	.	.	.	.	.	.
.	.	16a#X/	24cc#\LL	.	.	.	.	.	.	.	.	.	.
.	.	.	24dd#\	.	.	.	.	.	.	.	.	.	.
.	.	16a#/JJ	.	.	.	.	.	.	.	.	.	.	.
.	.	.	24cc#\JJ	.	.	.	.	.	.	.	.	.	.
!LO:LB:g=original	!	!	!	!	!	!	!	!	!	!	!	!	!
!	!	!	!	!	!	!	!LO:LB:g=original	!	!	!	!	!	!
=20	=20	=20	=20	=20	=20	=20	=20	=20	=20	=20	=20	=20	=20
!	!	!LO:TX:a:t=P:problem=takt dopisany na uzupełniającej pięciolinii	!	!	!	!	!	!	!	!	!	!	!
4r	.	8b/L	8dd\L	.	4r	.	4r	.	4r	.	4r	.	.
!	!	!LO:SIC:s=8a#	!	!	!	!	!	!	!	!	!	!	!
.	.	8a/J	8cc#\J	.	.	.	.	.	.	.	.	.	.
*	*	*	*	*	*	*ij	*	*	*	*ij	*	*ij	*
8B\L	.	4r	4r	.	8B\	vi-	8B\	vi-	8f#\	vi-	8dd\	vi-	.
8A#X\J	X 6	.	.	.	8A#X\	-si-	8c#\	-si-	8f#\	-si-	8cc#\	-si-	.
8B\L	.	4r	4r	.	8B\	-o-	8B\	-onis	8f#\	-o-	8dd\	-o-	.
8F#\J	.	.	.	.	8F#\	-nis	8A#X/	.	8f#\	-nis	8cc#\	-nis	.
*	*	*	*	*	*	*Xij	*	*	*	*Xij	*	*Xij	*
4r	.	16b/LL	24dd\LL	.	4r	.	4r	.	4r	.	4r	.	.
.	.	.	24ee\	.	.	.	.	.	.	.	.	.	.
.	.	16b/	.	.	.	.	.	.	.	.	.	.	.
.	.	.	24dd\JJ	.	.	.	.	.	.	.	.	.	.
.	.	16a/	24cc#\LL	.	.	.	.	.	.	.	.	.	.
.	.	.	24dd\	.	.	.	.	.	.	.	.	.	.
.	.	16a/JJ	.	.	.	.	.	.	.	.	.	.	.
.	.	.	24cc#\JJ	.	.	.	.	.	.	.	.	.	.
=21	=21	=21	=21	=21	=21	=21	=21	=21	=21	=21	=21	=21	=21
4r	.	8b/L	8dd\L	.	4r	.	4r	.	4r	.	4r	.	.
.	.	8a#X/J	8cc#\J	.	.	.	.	.	.	.	.	.	.
8B\L	.	8dd\L	8ff#\L	.	8B\	ro-	8B\	ro-	8f#\	ro-	8dd\	Ro-	.
!	!	!	!	!	!LO:SIC:s=8A	!	!	!	!	!	!	!	!
8An\J	.	8dd\J	8aan\J	.	8A#X\	-bus	8c#\	-b(us)	8e\	-bus	8cc#\	-bus	.
8G\L	.	8dd\L	8bb\L	.	8G\	vi-	8d\	vi-	8d\	vi-	8b\	vi-	.
.	X 6	.	.	.	.	.	.	.	.	.	.	.	.
8E\J	X 5	8ee\J	8bb\J	.	8E\	-si-	8B\	-si-	8e\	-si-	8cc#\	-si-	.
!LO:TX:a:t=P:problem=mixed beam	!	!	!	!	!	!	!	!	!	!	!	!	!
!	!	!	!	!	!	!	!	!	!	!	!LO:LB:g=original	!	!
!	!	!	!	!	!LO:LB:g=original	!	!	!	!	!	!	!	!
8F#\L	X 4	4cc#\	4aa#X\	.	4F#\	-o-	4c#\	-onis	4f#\	-o-	4a#X\	-o-	.
8FF#/J	X 3	.	.	.	.	.	.	.	.	.	.	.	.
!	!	!	!	!	!	!	!	!	!LO:LB:g=original	!	!	!	!
=22	=22	=22	=22	=22	=22	=22	=22	=22	=22	=22	=22	=22	=22
4BB/	.	4dd\	4bb\	.	4BB/	-nis	4B\	.	4f#\	-nis	4b\	-nis	.
8B\L	.	8dd\L	8ff#\L	.	8B\	ro-	8B\	ro-	8f#\	ro-	8dd\	Ro-	.
8An\J	.	8cc#\	8aa\J	.	8A\	-bus	8c#\	-b(us)	8e\	-bus	8cc#\	-bus	.
!LO:TX:a:t=P:problem=mixed beam	!	!	!	!	!	!	!	!	!	!	!	!	!
8G\L	.	8dd\	8bb\L	.	8G\	vi-	8d\	vi-	8d\	vi-	8b\	vi-	.
.	X 6	.	.	.	.	.	.	.	.	.	.	.	.
8E\	X 5	8ee\J	8bb\J	.	8E\	-si-	8B\	-si-	8e\	-sio	8cc#\	-si-	.
8F#\	X 4	4cc#\	4aa#X\	.	4F#\	-o-	4c#\	-onis	4f#\	-nis	4a#X\	-o-	.
8FF#/J	X 3	.	.	.	.	.	.	.	.	.	.	.	.
=23	=23	=23	=23	=23	=23	=23	=23	=23	=23	=23	=23	=23	=23
4BB/	.	4dd\	4bb\	.	4BB/	-nis	4B\	.	4f#\	.	4b\	-nis	.
4r	.	4r	4r	.	4r	.	4r	.	4r	.	4r	.	.
2r	.	2r	2r	.	2r	.	2r	.	2r	.	2re	.	.
!	!	!	!LO:TX:a:t=P:problem=pojedyncza kreska taktowa	!	!LO:TX:a:t=P:problem=kreska z obustronną repetycją	!	!	!	!	!	!	!	!
=24||	=24||	=24||	=24	=24	=24:|!|:	=24:|!|:	=24||	=24||	=24||	=24||	=24||	=24||	=24||
*M4/4	*	*M4/4	*M4/4	*	*	*	*M4/4	*	*	*	*M4/4	*	*
*met(C.)	*	*met(C.)	*met(C.)	*	*	*	*met(C.)	*	*	*	*met(C.)	*	*
!	!	!	!	!	!LO:TX:a:t=P:problem=zapis "Virga frondens Ritonelo T[a]C[et]." na pięciolinii	!	!	!	!	!	!	!	!
!	!	!	!	!	!	!	!	!	!LO:TX:t=P:problem=zapis "Virgo frondens Tacet Ritonello" na pięciolinii	!	!	!	!
!	!	!LO:TX:b:i:t=Virga frondens	!	!	!	!	!	!	!	!	!	!	!
!LO:TX:i:a:t=Solo:rj	!	!	!	!	!LO:TX:a:i:t=Virga frondens\nRitonelo T[a]C[et].	!	!	!	!LO:TX:a:i:t=Virgo frondens\nTacet Ritonello	!	!	!	!
8BB/L	.	00r	00r	.	1ryy	.	00r	.	1ryy	.	4r	.	.
8C#/	.	.	.	.	.	.	.	.	.	.	.	.	.
!	!	!	!	!	!	!	!	!	!	!	!	!	!LO:HP:a:i:t=f.
!	!	!	!	!	!	!	!	!	!	!	!	!	!LO:DY:a
8D/	.	.	.	.	.	.	.	.	.	.	8b\	Vir-	f
8BB/J	.	.	.	.	.	.	.	.	.	.	8b\	-ga	.
!LO:TX:a:t=P:problem=mixed beam	!	!	!	!	!	!	!	!	!	!	!	!	!
8E\L	X 6	.	.	.	.	.	.	.	.	.	8b\	fron-	.
.	X 5	.	.	.	.	.	.	.	.	.	.	.	.
8C#\	.	.	.	.	.	.	.	.	.	.	(>16cc#\LL	-dens	.
.	.	.	.	.	.	.	.	.	.	.	16b\JJ)	.	.
8F#\	X 4	.	.	.	.	.	.	.	.	.	8.a#X\	ger-	.
8FF#/J	X 3	.	.	.	.	.	.	.	.	.	.	.	.
.	.	.	.	.	.	.	.	.	.	.	16a#\	-mi-	.
=25	=25	=25	=25	=25	=25	=25	=25	=25	=25	=25	=25	=25	=25
!LO:TX:a:t=P:problem=mixed beam	!	!	!	!	!	!	!	!	!	!	!	!	!
8BB/L	.	.	.	.	1ryy	.	.	.	1ryy	.	4b\	-nis	.
8B\	.	.	.	.	.	.	.	.	.	.	.	.	.
8A#X\	X 6	.	.	.	.	.	.	.	.	.	4r	.	.
8F#\J	.	.	.	.	.	.	.	.	.	.	.	.	.
!LO:LB:g=original	!	!	!	!	!	!	!	!	!	!	!	!	!
!LO:TX:a:t=P:problem=mixed beam	!	!	!	!	!	!	!	!	!	!	!	!	!
8G\L	.	.	.	.	.	.	.	.	.	.	2re	.	.
8E\	.	.	.	.	.	.	.	.	.	.	.	.	.
8F#\	X 4	.	.	.	.	.	.	.	.	.	.	.	.
8FF#/J	X 3	.	.	.	.	.	.	.	.	.	.	.	.
=26	=26	=26	=26	=26	=26	=26	=26	=26	=26	=26	=26	=26	=26
8BB/L	.	.	.	.	1ryy	.	.	.	1ryy	.	4r	.	.
8C#/	.	.	.	.	.	.	.	.	.	.	.	.	.
8D/	.	.	.	.	.	.	.	.	.	.	8b\	Vir-	.
8BB/J	.	.	.	.	.	.	.	.	.	.	8b\	-ga	.
!LO:TX:a:t=P:problem=mixed beam	!	!	!	!	!	!	!	!	!	!	!	!	!
8E\L	X 6	.	.	.	.	.	.	.	.	.	8b\	fron-	.
.	X 5	.	.	.	.	.	.	.	.	.	.	.	.
8C#\	.	.	.	.	.	.	.	.	.	.	(>16cc#\LL	-dens	.
.	.	.	.	.	.	.	.	.	.	.	16b\JJ)	.	.
!	!	!	!	!	!	!	!	!	!	!	!LO:LB:g=original	!	!
!	!	!	!	!	!	!	!	!	!	!	!LO:TX:t=P:problem=krzyżyk znajduje się w poprzednim systemie	!	!
8F#\	X 4	.	.	.	.	.	.	.	.	.	8.a#X\	ger-	.
8FF#/J	X 3	.	.	.	.	.	.	.	.	.	.	.	.
.	.	.	.	.	.	.	.	.	.	.	16a#\	-mi-	.
=27	=27	=27	=27	=27	=27	=27	=27	=27	=27	=27	=27	=27	=27
8BB/L	.	.	.	.	1ryy	.	.	.	1ryy	.	4b\	-nis	.
8D/	.	.	.	.	.	.	.	.	.	.	.	.	.
8E/	.	.	.	.	.	.	.	.	.	.	4r	.	.
8F#/J	X 4	.	.	.	.	.	.	.	.	.	.	.	.
.	X 3	.	.	.	.	.	.	.	.	.	.	.	.
4BB/	.	.	.	.	.	.	.	.	.	.	8f#/	ve-	.
.	.	.	.	.	.	.	.	.	.	.	8f#/	-lus	.
8B\L	.	.	.	.	.	.	.	.	.	.	8b\	ge-	.
8A#X\J	X 6	.	.	.	.	.	.	.	.	.	8cc#\	-de-	.
=28	=28	=28	=28	=28	=28	=28	=28	=28	=28	=28	=28	=28	=28
*	*	*	*	*	*	*	*	*	*	*	*Xtuplet	*	*
8B\L	.	0r	0r	.	1ryy	.	00r	.	1ryy	.	24dd\LL	-o-	.
.	.	.	.	.	.	.	.	.	.	.	24ee\	.	.
.	.	.	.	.	.	.	.	.	.	.	24dd\JJ	.	.
8F#\J	.	.	.	.	.	.	.	.	.	.	24cc#\LL	.	.
.	.	.	.	.	.	.	.	.	.	.	24dd\	.	.
.	.	.	.	.	.	.	.	.	.	.	24cc#\JJ	.	.
!LO:TX:a:t=P:problem=mixed beam	!	!	!	!	!	!	!	!	!	!	!	!	!
8BB/L	.	.	.	.	.	.	.	.	.	.	24b\LL	.	.
.	.	.	.	.	.	.	.	.	.	.	24cc#\	.	.
.	.	.	.	.	.	.	.	.	.	.	24b\JJ	.	.
8F#\J	.	.	.	.	.	.	.	.	.	.	24cc#\LL	.	.
.	.	.	.	.	.	.	.	.	.	.	24dd\	.	.
.	.	.	.	.	.	.	.	.	.	.	24cc#\JJ	.	.
8B\L	.	.	.	.	.	.	.	.	.	.	24dd\LL	.	.
.	.	.	.	.	.	.	.	.	.	.	24ee\	.	.
.	.	.	.	.	.	.	.	.	.	.	24dd\JJ	.	.
8F#\J	.	.	.	.	.	.	.	.	.	.	24cc#\LL	.	.
.	.	.	.	.	.	.	.	.	.	.	24dd\	.	.
.	.	.	.	.	.	.	.	.	.	.	24cc#\JJ	.	.
!LO:TX:a:t=P:problem=mixed beam	!	!	!	!	!	!	!	!	!	!	!	!	!
8BB/L	.	.	.	.	.	.	.	.	.	.	24b\LL	.	.
.	.	.	.	.	.	.	.	.	.	.	24cc#\	.	.
.	.	.	.	.	.	.	.	.	.	.	24b\JJ	.	.
8F#\J	.	.	.	.	.	.	.	.	.	.	24cc#\LL	.	.
.	.	.	.	.	.	.	.	.	.	.	24dd\	.	.
.	.	.	.	.	.	.	.	.	.	.	24cc#\JJ	.	.
=29	=29	=29	=29	=29	=29	=29	=29	=29	=29	=29	=29	=29	=29
8B\L	.	.	.	.	1ryy	.	.	.	1ryy	.	8dd\	-nis	.
8F#\	.	.	.	.	.	.	.	.	.	.	8cc#\	.	.
8G#X\	.	.	.	.	.	.	.	.	.	.	4r	.	.
8A#X\J	X 6	.	.	.	.	.	.	.	.	.	.	.	.
4B\	.	.	.	.	.	.	.	.	.	.	8f#/	Ve-	.
.	.	.	.	.	.	.	.	.	.	.	8f#/	-lus	.
8B\L	.	.	.	.	.	.	.	.	.	.	8b\	ge-	.
8A#X\J	X 6	.	.	.	.	.	.	.	.	.	8cc#\	-de-	.
=30	=30	=30	=30	=30	=30	=30	=30	=30	=30	=30	=30	=30	=30
!LO:TX:a:t=P:problem=mixed beam	!	!LO:TX:a:i:t=Solo	!	!	!	!	!	!	!	!	!	!	!
8B\L	.	1r	1r	.	1ryy	.	.	.	1ryy	.	24dd\LL	-o-	.
.	.	.	.	.	.	.	.	.	.	.	24ee\	.	.
.	.	.	.	.	.	.	.	.	.	.	24dd\JJ	.	.
!	!	!	!	!	!	!	!	!	!	!	!LO:LB:g=original	!	!
8F#\	.	.	.	.	.	.	.	.	.	.	24cc#\LL	.	.
.	.	.	.	.	.	.	.	.	.	.	24dd\	.	.
.	.	.	.	.	.	.	.	.	.	.	24cc#\JJ	.	.
8BB/	.	.	.	.	.	.	.	.	.	.	24b\LL	.	.
.	.	.	.	.	.	.	.	.	.	.	24cc#\	.	.
.	.	.	.	.	.	.	.	.	.	.	24b\JJ	.	.
8F#\J	.	.	.	.	.	.	.	.	.	.	24cc#\LL	.	.
.	.	.	.	.	.	.	.	.	.	.	24dd\	.	.
.	.	.	.	.	.	.	.	.	.	.	24cc#\JJ	.	.
!LO:TX:a:t=P:problem=custos użyty jako łamanie pięciolinii	!	!	!	!	!	!	!	!	!	!	!	!	!
!LO:LB:g=original	!	!	!	!	!	!	!	!	!	!	!	!	!
8B\L	.	.	.	.	.	.	.	.	.	.	24dd\LL	.	.
.	.	.	.	.	.	.	.	.	.	.	24ee\	.	.
.	.	.	.	.	.	.	.	.	.	.	24dd\JJ	.	.
8F#\	.	.	.	.	.	.	.	.	.	.	24cc#\LL	.	.
.	.	.	.	.	.	.	.	.	.	.	24dd\	.	.
.	.	.	.	.	.	.	.	.	.	.	24cc#\JJ	.	.
8BB\	.	.	.	.	.	.	.	.	.	.	24b\LL	.	.
.	.	.	.	.	.	.	.	.	.	.	24cc#\	.	.
.	.	.	.	.	.	.	.	.	.	.	24b\JJ	.	.
8F#\J	.	.	.	.	.	.	.	.	.	.	24cc#\LL	.	.
.	.	.	.	.	.	.	.	.	.	.	24dd\	.	.
.	.	.	.	.	.	.	.	.	.	.	24cc#\JJ	.	.
!	!	!	!LO:TX:b:t=P:problem=brak kreski taktowej	!	!	!	!	!	!	!	!	!	!
=31	=31	=31	=31	=31	=31	=31	=31	=31	=31	=31	=31	=31	=31
!LO:TX:a:t=P:problem=mixed beam	!	!	!	!	!	!	!	!	!	!	!	!	!
8G\L	X 6	2r	2r	.	1ryy	.	.	.	1ryy	.	16dd\LL	.	.
.	.	.	.	.	.	.	.	.	.	.	16cc#\	.	.
8E\	X 5	.	.	.	.	.	.	.	.	.	16b\	.	.
.	.	.	.	.	.	.	.	.	.	.	16cc#\JJ	.	.
8F#\	.	.	.	.	.	.	.	.	.	.	4a#X/	.	.
.	X 4	.	.	.	.	.	.	.	.	.	.	.	.
8FF#/J	X 3	.	.	.	.	.	.	.	.	.	.	.	.
!	!	!	!LO:LB:g=original	!	!	!	!	!	!	!	!	!	!
!	!	!	!LO:TX:i:b:t=Ritonello	!	!	!	!	!	!	!	!	!	!
!	!	!	!LO:TX:i:a:t=Solo	!	!	!	!	!	!	!	!	!	!
4BB/	.	4f#/	8b\L	.	.	.	.	.	.	.	4b\	-nis	.
.	.	.	16b\L	.	.	.	.	.	.	.	.	.	.
.	.	.	16b\JJ	.	.	.	.	.	.	.	.	.	.
8r	.	8r	8b\L	.	.	.	.	.	.	.	4r	.	.
8BB/	.	8f#/	16f#\L	.	.	.	.	.	.	.	.	.	.
.	.	.	16b\JJ	.	.	.	.	.	.	.	.	.	.
=32	=32	=32	=32	=32	=32	=32	=32	=32	=32	=32	=32	=32	=32
4F#\	.	4a#X/	8cc#\L	.	1ryy	.	00rG	.	1ryy	.	00r	.	.
.	.	.	16cc#\L	.	.	.	.	.	.	.	.	.	.
.	.	.	16cc#\JJ	.	.	.	.	.	.	.	.	.	.
8r	.	8r	8cc#\L	.	.	.	.	.	.	.	.	.	.
8F#\	.	8a#/	16f#\L	.	.	.	.	.	.	.	.	.	.
.	.	.	16cc#\JJ	.	.	.	.	.	.	.	.	.	.
!	!	!LO:LB:g=original	!	!	!	!	!	!	!	!	!	!	!
8B\L	.	8b/L	16dd\LL	.	.	.	.	.	.	.	.	.	.
.	.	.	16cc#\	.	.	.	.	.	.	.	.	.	.
8A#X\	X 6	8a#X/	16b\	.	.	.	.	.	.	.	.	.	.
.	.	.	16dd\JJ	.	.	.	.	.	.	.	.	.	.
8B\	.	8b/	8dd\L	.	.	.	.	.	.	.	.	.	.
8Gn\J	X 7	8e/J	16cc#\L	.	.	.	.	.	.	.	.	.	.
.	X 6	.	16b\JJ	.	.	.	.	.	.	.	.	.	.
=33	=33	=33	=33	=33	=33	=33	=33	=33	=33	=33	=33	=33	=33
8F#\L	.	4f#/	8cc#\L	.	1ryy	.	.	.	1ryy	.	.	.	.
16F#\L	.	.	8f#\J	.	.	.	.	.	.	.	.	.	.
16F#\JJ	.	.	.	.	.	.	.	.	.	.	.	.	.
!LO:TX:a:t=P:problem=mixed beam	!	!	!	!	!	!	!	!	!	!	!	!	!
8B\L	.	8r	8r	.	.	.	.	.	.	.	.	.	.
8BB/J	.	8dd\	8ff#\	.	.	.	.	.	.	.	.	.	.
4E\	X 6	16ee\LL	16gg\LL	.	.	.	.	.	.	.	.	.	.
.	.	16dd\	16ff#\	.	.	.	.	.	.	.	.	.	.
.	.	16cc#\	16ee\	.	.	.	.	.	.	.	.	.	.
.	.	16dd\JJ	16ff#\JJ	.	.	.	.	.	.	.	.	.	.
8r	.	16ee\LL	16gg\LL	.	.	.	.	.	.	.	.	.	.
.	.	16dd\	16ff#\	.	.	.	.	.	.	.	.	.	.
8E\	.	16cc#\	16ee\	.	.	.	.	.	.	.	.	.	.
.	.	16dd\JJ	16gg\JJ	.	.	.	.	.	.	.	.	.	.
=34	=34	=34	=34	=34	=34	=34	=34	=34	=34	=34	=34	=34	=34
4BB/	.	16dd\LL	16ff#\LL	.	1ryy	.	.	.	1ryy	.	.	.	.
.	.	16cc#\	16ee\	.	.	.	.	.	.	.	.	.	.
.	.	16b\	16dd\	.	.	.	.	.	.	.	.	.	.
.	.	16cc#\JJ	16ee\JJ	.	.	.	.	.	.	.	.	.	.
8r	.	16dd\LL	16ff#\LL	.	.	.	.	.	.	.	.	.	.
.	.	16cc#\	16ee\	.	.	.	.	.	.	.	.	.	.
8BB/	.	16b\	16dd\	.	.	.	.	.	.	.	.	.	.
.	.	16cc#\JJ	16ff#\JJ	.	.	.	.	.	.	.	.	.	.
8C#/L	.	16cc#\LL	16ee\LL	.	.	.	.	.	.	.	.	.	.
.	.	16dd\	16ff#\	.	.	.	.	.	.	.	.	.	.
16D/L	.	16b\	16dd\	.	.	.	.	.	.	.	.	.	.
16E/JJ	.	16cc#\JJ	16ee\JJ	.	.	.	.	.	.	.	.	.	.
!LO:TX:a:t=P:problem=mixed beam	!	!	!	!	!	!	!	!	!	!	!	!	!
8F#\L	X 4	8.a#X/L	8.cc#\L	.	.	.	.	.	.	.	.	.	.
8FF#/J	X 3	.	.	.	.	.	.	.	.	.	.	.	.
.	.	16a#/Jk	16b\Jk	.	.	.	.	.	.	.	.	.	.
=35	=35	=35	=35	=35	=35	=35	=35	=35	=35	=35	=35	=35	=35
!LO:TX:a:t=P:problem=mixed beam	!	!	!	!	!	!	!	!	!	!	!	!	!
8BB/L	.	4b/	4b\	.	1ryy	.	.	.	1ryy	.	.	.	.
16F#\L	.	.	.	.	.	.	.	.	.	.	.	.	.
16F#\JJ	.	.	.	.	.	.	.	.	.	.	.	.	.
!LO:LB:g=original	!	!	!	!	!	!	!	!	!	!	!	!	!
!LO:TX:a:t=P:problem=mixed beam	!	!	!	!	!	!	!	!	!	!	!	!	!
8B\L	.	8r	8r	.	.	.	.	.	.	.	.	.	.
8BB/J	.	8dd\	8ff#\	.	.	.	.	.	.	.	.	.	.
4E\	X 6	16ee\LL	16gg\LL	.	.	.	.	.	.	.	.	.	.
.	.	16dd\	16ff#\	.	.	.	.	.	.	.	.	.	.
.	.	16cc#\	16ee\	.	.	.	.	.	.	.	.	.	.
.	.	16dd\JJ	16ff#\JJ	.	.	.	.	.	.	.	.	.	.
8r	.	16ee\LL	16gg\LL	.	.	.	.	.	.	.	.	.	.
.	.	16dd\	16ff#\	.	.	.	.	.	.	.	.	.	.
8E\	.	16cc#\	16ee\	.	.	.	.	.	.	.	.	.	.
.	.	16dd\JJ	16gg\JJ	.	.	.	.	.	.	.	.	.	.
!	!	!	!LO:LB:g=original	!	!	!	!	!	!	!	!	!	!
=36	=36	=36	=36	=36	=36	=36	=36	=36	=36	=36	=36	=36	=36
4BB/	.	16dd\LL	16ff#\LL	.	1ryy	.	1rB	.	1ryy	.	00r	.	.
.	.	16cc#\	16ee\	.	.	.	.	.	.	.	.	.	.
.	.	16b\	16dd\	.	.	.	.	.	.	.	.	.	.
.	.	16cc#\JJ	16ee\JJ	.	.	.	.	.	.	.	.	.	.
8r	.	16dd\LL	16ff#\LL	.	.	.	.	.	.	.	.	.	.
.	.	16cc#\	16ee\	.	.	.	.	.	.	.	.	.	.
8BB/	.	16b\	16dd\	.	.	.	.	.	.	.	.	.	.
.	.	16cc#\JJ	16ff#\JJ	.	.	.	.	.	.	.	.	.	.
!	!	!LO:LB:g=original	!	!	!	!	!	!	!	!	!	!	!
8C#/L	.	16cc#\LL	16ee\LL	.	.	.	.	.	.	.	.	.	.
.	.	16dd\	16ff#\	.	.	.	.	.	.	.	.	.	.
16D/L	.	16b\	16dd\	.	.	.	.	.	.	.	.	.	.
16E/JJ	.	16cc#\JJ	16ee\JJ	.	.	.	.	.	.	.	.	.	.
!LO:TX:a:t=P:problem=mixed beam	!	!	!	!	!	!	!	!	!	!	!	!	!
8F#\L	X 4	8.a#X/L	8.cc#\L	.	.	.	.	.	.	.	.	.	.
8FF#/J	X 3	.	.	.	.	.	.	.	.	.	.	.	.
.	.	16a#/Jk	16b\Jk	.	.	.	.	.	.	.	.	.	.
!	!	!	!	!	!LO:TX:a:t=P:problem=podwójna kreska	!	!LO:TX:b:t=P:problem=brak kreski taktowej	!	!LO:TX:a:t=P:problem=podwójna kreska	!	!	!	!
=37	=37	=37	=37	=37	=37||	=37||	=37	=37	=37||	=37||	=37	=37	=37
!	!	!	!	!	!LO:TX:a:t=P:problem=zapis "Porta Clausa\nRitonel T[a]C[et]" na pięciolinii	!	!	!	!	!	!	!	!
!	!	!	!	!	!LO:TX:a:i:t=Porta Clausa\nRitonelo T[a]C[et].	!	!LO:TX:a:i:t=Solo	!	!LO:TX:a:i:t=Porta clausa\nTacet Ritonel	!	!	!	!
!	!	!	!	!	!	!	!	!	!LO:TX:t=P:problem=zapis "Porta clausa Tacet Ritonel" na pięciolinii	!	!	!	!
8BB/L	.	4b/	4b\	.	1ryy	.	4r	.	1ryy	.	.	.	.
8C#/	.	.	.	.	.	.	.	.	.	.	.	.	.
!	!	!LO:TX:i:b:t=Porta Clausa	!	!	!	!	!	!	!	!	!	!	!
8D/	.	4r	4r	.	.	.	8B\	Por-	.	.	.	.	.
8BB/J	.	.	.	.	.	.	8B\	-ta	.	.	.	.	.
!LO:TX:a:t=P:problem=mixed beam	!	!	!	!	!	!	!	!	!	!	!	!	!
!	!	!	!LO:TX:i:b:t=Tenore	!	!	!	!	!	!	!	!	!	!
8E\L	X 6	2r	2r	.	.	.	8B\	clau-	.	.	.	.	.
*	*	*	*	*	*	*	*custos:g	*	*	*	*	*	*
!	!	!	!	!	!	!	!LO:LB:g=original	!	!	!	!	!	!
8C#\	X 5	.	.	.	.	.	(>16c#X\LL	-sa	.	.	.	.	.
.	.	.	.	.	.	.	16B\JJ)	.	.	.	.	.	.
8F#\	X 4	.	.	.	.	.	8.A#X\	nu-	.	.	.	.	.
8FF#/J	X 3	.	.	.	.	.	.	.	.	.	.	.	.
.	.	.	.	.	.	.	16A#\	-mi-	.	.	.	.	.
!	!	!	!LO:TX:b:t=P:problem=brak kreski taktowej	!	!	!	!	!	!	!	!	!	!
=38	=38	=38	=38	=38	=38	=38	=38	=38	=38	=38	=38	=38	=38
!LO:TX:a:t=P:problem=mixed beam	!	!	!	!	!	!	!	!	!	!	!	!	!
8BB/L	.	00r	00r	.	1ryy	.	4B\	-nis	1ryy	.	.	.	.
8B\	.	.	.	.	.	.	.	.	.	.	.	.	.
8A#X\	X 6	.	.	.	.	.	4r	.	.	.	.	.	.
8F#\J	.	.	.	.	.	.	.	.	.	.	.	.	.
!LO:TX:a:t=P:problem=mixed beam	!	!	!	!	!	!	!	!	!	!	!	!	!
8G\L	.	.	.	.	.	.	2rG	.	.	.	.	.	.
8E\	.	.	.	.	.	.	.	.	.	.	.	.	.
8F#\	.	.	.	.	.	.	.	.	.	.	.	.	.
.	X 4	.	.	.	.	.	.	.	.	.	.	.	.
8FF#/J	X 3	.	.	.	.	.	.	.	.	.	.	.	.
=39	=39	=39	=39	=39	=39	=39	=39	=39	=39	=39	=39	=39	=39
8BB/L	.	.	.	.	1ryy	.	4r	.	1ryy	.	.	.	.
8C#/	.	.	.	.	.	.	.	.	.	.	.	.	.
8D/	.	.	.	.	.	.	8B\	Por-	.	.	.	.	.
8BB/J	.	.	.	.	.	.	8B\	-ta	.	.	.	.	.
!LO:TX:a:t=P:problem=mixed beam	!	!	!	!	!	!	!	!	!	!	!	!	!
8E\L	.	.	.	.	.	.	8B\	clau-	.	.	.	.	.
8C#\	.	.	.	.	.	.	(>16c#\LL	-sa	.	.	.	.	.
.	.	.	.	.	.	.	16B\JJ)	.	.	.	.	.	.
8F#\	.	.	.	.	.	.	8.A#X\	nu-	.	.	.	.	.
8FF#/J	.	.	.	.	.	.	.	.	.	.	.	.	.
.	.	.	.	.	.	.	16A#\	-mi-	.	.	.	.	.
!LO:LB:g=original	!	!	!	!	!	!	!	!	!	!	!	!	!
=40	=40	=40	=40	=40	=40	=40	=40	=40	=40	=40	=40	=40	=40
8BB/L	.	.	.	.	1ryy	.	4B\	-nis	1ryy	.	00rcc	.	.
8D/	.	.	.	.	.	.	.	.	.	.	.	.	.
8E/	.	.	.	.	.	.	4r	.	.	.	.	.	.
8F#/J	.	.	.	.	.	.	.	.	.	.	.	.	.
4BB/	.	.	.	.	.	.	8F#/	fa-	.	.	.	.	.
.	.	.	.	.	.	.	8F#/	-v(us)-	.	.	.	.	.
8B\L	.	.	.	.	.	.	8B\	-q(ue)	.	.	.	.	.
8A#X\J	X 6	.	.	.	.	.	8c#\	sam-	.	.	.	.	.
=41	=41	=41	=41	=41	=41	=41	=41	=41	=41	=41	=41	=41	=41
*	*	*	*	*	*	*	*Xtuplet	*	*	*	*	*	*
8B\L	.	.	.	.	1ryy	.	24d\LL	-so-	1ryy	.	.	.	.
.	.	.	.	.	.	.	24e\	.	.	.	.	.	.
.	.	.	.	.	.	.	24d\JJ	.	.	.	.	.	.
8F#\J	.	.	.	.	.	.	24c#\LL	.	.	.	.	.	.
.	.	.	.	.	.	.	24d\	.	.	.	.	.	.
.	.	.	.	.	.	.	24c#\JJ	.	.	.	.	.	.
!LO:TX:a:t=P:problem=mixed beam	!	!	!	!	!	!	!	!	!	!	!	!	!
8BB/L	.	.	.	.	.	.	24B\LL	.	.	.	.	.	.
.	.	.	.	.	.	.	24c#\	.	.	.	.	.	.
.	.	.	.	.	.	.	24B\JJ	.	.	.	.	.	.
8F#\J	.	.	.	.	.	.	24c#\LL	.	.	.	.	.	.
.	.	.	.	.	.	.	24d\	.	.	.	.	.	.
.	.	.	.	.	.	.	24c#\JJ	.	.	.	.	.	.
8B\L	.	.	.	.	.	.	24d\LL	.	.	.	.	.	.
.	.	.	.	.	.	.	24e\	.	.	.	.	.	.
.	.	.	.	.	.	.	24d\JJ	.	.	.	.	.	.
*	*	*	*	*	*	*	*custos:c	*	*	*	*	*	*
!	!	!	!	!	!	!	!LO:LB:g=original	!	!	!	!	!	!
8F#\J	.	.	.	.	.	.	24c#\LL	.	.	.	.	.	.
.	.	.	.	.	.	.	24d\	.	.	.	.	.	.
.	.	.	.	.	.	.	24c#\JJ	.	.	.	.	.	.
!LO:TX:a:t=P:problem=mixed beam	!	!	!	!	!	!	!	!	!	!	!	!	!
8BB/L	.	.	.	.	.	.	24B\LL	.	.	.	.	.	.
.	.	.	.	.	.	.	24c#\	.	.	.	.	.	.
.	.	.	.	.	.	.	24B\JJ	.	.	.	.	.	.
8F#\J	.	.	.	.	.	.	24c#\LL	.	.	.	.	.	.
.	.	.	.	.	.	.	24d\	.	.	.	.	.	.
.	.	.	.	.	.	.	24c#\JJ	.	.	.	.	.	.
=42	=42	=42	=42	=42	=42	=42	=42	=42	=42	=42	=42	=42	=42
8B\L	.	0r	0r	.	1ryy	.	8d\	.	1ryy	.	.	.	.
8F#\	.	.	.	.	.	.	8c#\	-nis	.	.	.	.	.
8G#X\	.	.	.	.	.	.	4r	.	.	.	.	.	.
8A#X\J	X 6	.	.	.	.	.	.	.	.	.	.	.	.
4B\	.	.	.	.	.	.	8F#/	fa-	.	.	.	.	.
.	.	.	.	.	.	.	8F#/	-v(us)-	.	.	.	.	.
8B\L	.	.	.	.	.	.	8B\	-quae	.	.	.	.	.
8A#X\J	.	.	.	.	.	.	8c#\	Sam-	.	.	.	.	.
=43	=43	=43	=43	=43	=43	=43	=43	=43	=43	=43	=43	=43	=43
8B\L	.	.	.	.	1ryy	.	24d\LL	-so-	1ryy	.	.	.	.
.	.	.	.	.	.	.	24e\	.	.	.	.	.	.
.	.	.	.	.	.	.	24d\JJ	.	.	.	.	.	.
8F#\J	.	.	.	.	.	.	24c#\LL	.	.	.	.	.	.
.	.	.	.	.	.	.	24d\	.	.	.	.	.	.
.	.	.	.	.	.	.	24c#\JJ	.	.	.	.	.	.
!LO:TX:a:t=P:problem=mixed beam	!	!	!	!	!	!	!	!	!	!	!	!	!
8BB/L	.	.	.	.	.	.	24B\LL	.	.	.	.	.	.
.	.	.	.	.	.	.	24c#\	.	.	.	.	.	.
.	.	.	.	.	.	.	24B\JJ	.	.	.	.	.	.
8F#\J	.	.	.	.	.	.	24c#\LL	.	.	.	.	.	.
.	.	.	.	.	.	.	24d\	.	.	.	.	.	.
.	.	.	.	.	.	.	24c#\JJ	.	.	.	.	.	.
8B\L	.	.	.	.	.	.	24d\LL	.	.	.	.	.	.
.	.	.	.	.	.	.	24e\	.	.	.	.	.	.
.	.	.	.	.	.	.	24d\JJ	.	.	.	.	.	.
8F#\J	.	.	.	.	.	.	24c#\LL	.	.	.	.	.	.
.	.	.	.	.	.	.	24d\	.	.	.	.	.	.
.	.	.	.	.	.	.	24c#\JJ	.	.	.	.	.	.
!LO:TX:a:t=P:problem=mixed beam	!	!	!	!	!	!	!	!	!	!	!	!	!
8BB/L	.	.	.	.	.	.	24B\LL	.	.	.	.	.	.
.	.	.	.	.	.	.	24c#\	.	.	.	.	.	.
.	.	.	.	.	.	.	24B\JJ	.	.	.	.	.	.
8F#\J	.	.	.	.	.	.	24c#\LL	.	.	.	.	.	.
.	.	.	.	.	.	.	24d\	.	.	.	.	.	.
.	.	.	.	.	.	.	24c#\JJ	.	.	.	.	.	.
!	!	!LO:TX:b:t=P:problem=brak kreski taktowej	!LO:TX:b:t=P:problem=brak kreski taktowej	!	!	!	!	!	!	!	!	!	!
=44	=44	=44	=44	=44	=44	=44	=44	=44	=44	=44	=44	=44	=44
!LO:TX:a:t=P:problem=mixed beam	!	!	!	!	!	!	!	!	!	!	!	!	!
8G\L	.	2r	2r	.	1ryy	.	16d\LL	.	1ryy	.	00rcc	.	.
.	X 6	.	.	.	.	.	16c#\	.	.	.	.	.	.
8E\	X 5	.	.	.	.	.	16B\	.	.	.	.	.	.
.	.	.	.	.	.	.	16c#\JJ	.	.	.	.	.	.
8F#\	X 4	.	.	.	.	.	4A#X/	-nis	.	.	.	.	.
8FF#/J	X 3	.	.	.	.	.	.	.	.	.	.	.	.
!	!	!	!LO:TX:i:b:t=Ritonello	!	!	!	!	!	!	!	!	!	!
!	!	!	!LO:TX:i:a:t=Solo	!	!	!	!	!	!	!	!	!	!
4BB/	.	4f#/	8b\L	.	.	.	4B\	.	.	.	.	.	.
.	.	.	16b\L	.	.	.	.	.	.	.	.	.	.
.	.	.	16b\JJ	.	.	.	.	.	.	.	.	.	.
8r	.	8r	8b\L	.	.	.	4r	.	.	.	.	.	.
8BB/	.	8f#/	16f#\L	.	.	.	.	.	.	.	.	.	.
.	.	.	16b\JJ	.	.	.	.	.	.	.	.	.	.
=45	=45	=45	=45	=45	=45	=45	=45	=45	=45	=45	=45	=45	=45
4F#\	.	4a#X/	8cc#\L	.	1ryy	.	00rG	.	1ryy	.	.	.	.
.	.	.	16cc#\L	.	.	.	.	.	.	.	.	.	.
.	.	.	16cc#\JJ	.	.	.	.	.	.	.	.	.	.
8r	.	8r	8cc#\L	.	.	.	.	.	.	.	.	.	.
8F#\	.	8a#/	16f#\L	.	.	.	.	.	.	.	.	.	.
.	.	.	16cc#\JJ	.	.	.	.	.	.	.	.	.	.
!LO:TX:a:t=P:problem=znaczek użyty jako łamanie pięciolinii	!	!	!	!	!	!	!	!	!	!	!	!	!
!LO:LB:g=original	!	!	!	!	!	!	!	!	!	!	!	!	!
8B\L	.	8b/L	16dd\LL	.	.	.	.	.	.	.	.	.	.
.	.	.	16cc#\	.	.	.	.	.	.	.	.	.	.
8A#X\	X 6	8a#X/	16b\	.	.	.	.	.	.	.	.	.	.
.	.	.	16cc#\JJ	.	.	.	.	.	.	.	.	.	.
8B\	.	8b/	8dd\L	.	.	.	.	.	.	.	.	.	.
8Gn\J	X 7	8e/J	16cc#\L	.	.	.	.	.	.	.	.	.	.
.	X 6	.	16b\JJ	.	.	.	.	.	.	.	.	.	.
=46	=46	=46	=46	=46	=46	=46	=46	=46	=46	=46	=46	=46	=46
8F#\L	.	4f#/	8cc#\L	.	1ryy	.	.	.	1ryy	.	.	.	.
!	!	!	!	!LO:DY:a	!	!	!	!	!	!	!	!	!
16F#\L	.	.	8f#\J	f	.	.	.	.	.	.	.	.	.
16F#\JJ	.	.	.	.	.	.	.	.	.	.	.	.	.
!LO:TX:a:t=P:problem=mixed beam	!	!	!	!	!	!	!	!	!	!	!	!	!
8B\L	.	8r	8r	.	.	.	.	.	.	.	.	.	.
8BB/J	.	8dd\	8ff#\	.	.	.	.	.	.	.	.	.	.
4E\	X 6	16ee\LL	16gg\LL	.	.	.	.	.	.	.	.	.	.
.	.	16dd\	16ff#\	.	.	.	.	.	.	.	.	.	.
.	.	16cc#\	16ee\	.	.	.	.	.	.	.	.	.	.
.	.	16dd\JJ	16ff#\JJ	.	.	.	.	.	.	.	.	.	.
8r	.	16ee\LL	16gg\LL	.	.	.	.	.	.	.	.	.	.
.	.	16dd\	16ff#\	.	.	.	.	.	.	.	.	.	.
8E\	.	16cc#\	16ee\	.	.	.	.	.	.	.	.	.	.
.	.	16dd\JJ	16gg\JJ	.	.	.	.	.	.	.	.	.	.
=47	=47	=47	=47	=47	=47	=47	=47	=47	=47	=47	=47	=47	=47
4BB/	.	16dd\LL	16ff#\LL	.	1ryy	.	.	.	1ryy	.	.	.	.
.	.	16cc#\	16ee\	.	.	.	.	.	.	.	.	.	.
.	.	16b\	16dd\	.	.	.	.	.	.	.	.	.	.
.	.	16cc#\JJ	16ee\JJ	.	.	.	.	.	.	.	.	.	.
8r	.	16dd\LL	16ff#\LL	.	.	.	.	.	.	.	.	.	.
.	.	16cc#\	16ee\	.	.	.	.	.	.	.	.	.	.
8BB/	.	16b\	16dd\	.	.	.	.	.	.	.	.	.	.
.	.	16cc#\JJ	16ff#\JJ	.	.	.	.	.	.	.	.	.	.
!	!	!	!LO:LB:g=original	!	!	!	!	!	!	!	!	!	!
8C#\L	.	16cc#\LL	16ee\LL	.	.	.	.	.	.	.	.	.	.
.	.	16dd\	16ff#\	.	.	.	.	.	.	.	.	.	.
16D\L	.	16b\	16dd\	.	.	.	.	.	.	.	.	.	.
16E\JJ	.	16cc#\JJ	16ee\JJ	.	.	.	.	.	.	.	.	.	.
!LO:TX:a:t=P:problem=mixed beam	!	!	!	!	!	!	!	!	!	!	!	!	!
8F#\L	.	8.a#X/L	8.cc#\L	.	.	.	.	.	.	.	.	.	.
.	X 4	.	.	.	.	.	.	.	.	.	.	.	.
8FF#/J	X 3	.	.	.	.	.	.	.	.	.	.	.	.
.	.	16a#/Jk	16b\Jk	.	.	.	.	.	.	.	.	.	.
=48	=48	=48	=48	=48	=48	=48	=48	=48	=48	=48	=48	=48	=48
!LO:TX:a:t=P:problem=mixed beam	!	!	!	!	!	!	!	!	!	!	!	!	!
8BB/L	.	4b/	4b\	.	1ryy	.	.	.	1ryy	.	0re	.	.
16F#\L	.	.	.	.	.	.	.	.	.	.	.	.	.
16F#\JJ	.	.	.	.	.	.	.	.	.	.	.	.	.
!LO:TX:a:t=P:problem=mixed beam	!	!	!	!	!	!	!	!	!	!	!	!	!
8B\L	.	8r	8r	.	.	.	.	.	.	.	.	.	.
!	!	!LO:LB:g=original	!	!	!	!	!	!	!	!	!	!	!
8BB/J	.	8dd\	8ff#\	.	.	.	.	.	.	.	.	.	.
4E\	.	16ee\LL	16gg\LL	.	.	.	.	.	.	.	.	.	.
.	.	16dd\	16ff#\	.	.	.	.	.	.	.	.	.	.
.	.	16cc#\	16ee\	.	.	.	.	.	.	.	.	.	.
.	.	16dd\JJ	16ff#\JJ	.	.	.	.	.	.	.	.	.	.
8r	.	16ee\LL	16gg\LL	.	.	.	.	.	.	.	.	.	.
.	.	16dd\	16ff#\	.	.	.	.	.	.	.	.	.	.
8E\	.	16cc#\	16ee\	.	.	.	.	.	.	.	.	.	.
.	.	16ee\JJ	16gg\JJ	.	.	.	.	.	.	.	.	.	.
=49	=49	=49	=49	=49	=49	=49	=49	=49	=49	=49	=49	=49	=49
4BB/	.	16dd\LL	16ff#\LL	.	1ryy	.	0rG	.	1ryy	.	.	.	.
.	.	16cc#\	16ee\	.	.	.	.	.	.	.	.	.	.
.	.	16b\	16dd\	.	.	.	.	.	.	.	.	.	.
.	.	16cc#\JJ	16ee\JJ	.	.	.	.	.	.	.	.	.	.
8r	.	16dd\LL	16ff#\LL	.	.	.	.	.	.	.	.	.	.
.	.	16cc#\	16ee\	.	.	.	.	.	.	.	.	.	.
8BB/	.	16b\	16dd\	.	.	.	.	.	.	.	.	.	.
.	.	16dd\JJ	16ff#\JJ	.	.	.	.	.	.	.	.	.	.
8C#/L	.	16cc#\LL	16ee\LL	.	.	.	.	.	.	.	.	.	.
.	.	16dd\	16ff#\	.	.	.	.	.	.	.	.	.	.
16D/L	.	16b\	16dd\	.	.	.	.	.	.	.	.	.	.
16E/JJ	.	16cc#\JJ	16ee\JJ	.	.	.	.	.	.	.	.	.	.
!LO:TX:a:t=P:problem=mixed beam	!	!	!	!	!	!	!	!	!	!	!	!	!
8F#\L	.	8.a#X/L	8.cc#\L	.	.	.	.	.	.	.	.	.	.
.	X 4	.	.	.	.	.	.	.	.	.	.	.	.
8FF#/J	X 3	.	.	.	.	.	.	.	.	.	.	.	.
!	!	!	!LO:SIC:s=16b	!	!	!	!	!	!	!	!	!	!
!	!	!	!LO:N:vis=8	!	!	!	!	!	!	!	!	!	!
.	.	16a#/Jk	16b\Jk	.	.	.	.	.	.	.	.	.	.
!LO:PB:g=original	!	!	!	!	!	!	!	!	!	!	!	!	!
=50	=50	=50	=50	=50	=50	=50	=50	=50	=50	=50	=50	=50	=50
4BB/	.	4b/	4b\	.	1ryy	.	.	.	1ryy	.	1rg	.	.
!	!	!LO:TX:a:t=P:problem=brak pauz w tym takcie	!	!	!	!	!	!	!	!	!	!	!
4r	.	4ryy	4r	.	.	.	.	.	.	.	.	.	.
2r	.	2ryy	2r	.	.	.	.	.	.	.	.	.	.
!	!	!	!	!	!	!	!LO:TX:a:t=P:problem=kreska z repetycją	!	!	!	!	!	!
!	!	!	!	!	!LO:TX:a:t=P:problem=brak kreski taktowej	!	!LO:LB:g=original	!	!	!	!	!	!
!	!	!	!	!	!LO:LB:g=original	!	!	!	!	!	!	!	!
=51||	=51||	=51||	=51||	=51||	=51	=51	=51:|!	=51:|!	=51||	=51||	=51||	=51||	=51||
*M4/4	*	*M4/4	*	*	*M4/4	*	*	*	*M4/4	*	*	*	*
*met(C.)	*	*met(C.)	*	*	*met(c|)	*	*	*	*met(c)	*	*	*	*
!	!	!	!	!	!	!	!	!	!	!	!LO:TX:t=P:problem=zapis "Decebat T[a]C[et]. Ritonelo" na pięciolinii	!	!
!	!	!	!	!	!	!	!LO:TX:t=P:problem=zapis "Decebat tam nobile(m) Ritonelo T[a].C[et]." na pięciolinii	!	!	!	!	!	!
!LO:TX:i:a:t=Solo:rj	!	!LO:TX:i:b:t=Decebat	!	!	!LO:TX:i:a:t=So&colon;	!	!LO:TX:i:a:t=Decebat tam nobile(m)\nRitonelo T[a].C[et].	!	!	!	!LO:TX:i:a:t=Decebat T[a]C[et].\nRitonelo	!	!
8D\L	.	00r	00r	.	00r	.	1ryy	.	4r	.	1ryy	.	.
8E\	.	.	.	.	.	.	.	.	.	.	.	.	.
8F#\	X 6	.	.	.	.	.	.	.	8r	.	.	.	.
!	!	!	!	!	!	!	!	!	!LO:TX:i:a:t=solo:rj	!	!	!	!
8D\J	.	.	.	.	.	.	.	.	8d\	De-	.	.	.
8C#/L	X 6	.	.	.	.	.	.	.	4a\	-ce-	.	.	.
8BB/	.	.	.	.	.	.	.	.	.	.	.	.	.
!	!	!	!	!	!	!	!	!	!LO:LB:g=original	!	!	!	!
8C#/	.	.	.	.	.	.	.	.	8a\	-bat	.	.	.
8AA/J	.	.	.	.	.	.	.	.	8a\	ta(m)	.	.	.
=52	=52	=52	=52	=52	=52	=52	=52	=52	=52	=52	=52	=52	=52
!LO:TX:a:t=P:problem=mixed beam	!	!	!	!	!	!	!	!	!	!	!	!	!
8D/L	.	.	.	.	.	.	1ryy	.	16f#\	no-	1ryy	.	.
.	.	.	.	.	.	.	.	.	16e\	-bi-	.	.	.
8d\	.	.	.	.	.	.	.	.	8d\	-lem	.	.	.
8c#\	X 6	.	.	.	.	.	.	.	4r	.	.	.	.
8A\J	.	.	.	.	.	.	.	.	.	.	.	.	.
!LO:TX:a:t=P:problem=mixed beam	!	!	!	!	!	!	!	!	!	!	!	!	!
8B\L	.	.	.	.	.	.	.	.	2r	.	.	.	.
.	X 6	.	.	.	.	.	.	.	.	.	.	.	.
8G\	X 5	.	.	.	.	.	.	.	.	.	.	.	.
8A\	.	.	.	.	.	.	.	.	.	.	.	.	.
.	X 4	.	.	.	.	.	.	.	.	.	.	.	.
8AA/J	X 3	.	.	.	.	.	.	.	.	.	.	.	.
=53	=53	=53	=53	=53	=53	=53	=53	=53	=53	=53	=53	=53	=53
8D\L	.	.	.	.	.	.	1ryy	.	4r	.	1ryy	.	.
8E\	.	.	.	.	.	.	.	.	.	.	.	.	.
8F#\	X 6	.	.	.	.	.	.	.	8r	.	.	.	.
8D\J	.	.	.	.	.	.	.	.	8d\	De-	.	.	.
8C#/L	X 6	.	.	.	.	.	.	.	4a\	-ce-	.	.	.
8BB/	.	.	.	.	.	.	.	.	.	.	.	.	.
8C#/	.	.	.	.	.	.	.	.	8a\	-bat	.	.	.
8AA/J	.	.	.	.	.	.	.	.	8a\	ta(m)	.	.	.
=54	=54	=54	=54	=54	=54	=54	=54	=54	=54	=54	=54	=54	=54
8D\L	.	.	.	.	.	.	1ryy	.	16f#\	no-	1ryy	.	.
.	.	.	.	.	.	.	.	.	16e\	-bi-	.	.	.
8F#\	.	.	.	.	.	.	.	.	8d\	-lem	.	.	.
8G\	.	.	.	.	.	.	.	.	4r	.	.	.	.
8A\J	4	.	.	.	.	.	.	.	.	.	.	.	.
.	3	.	.	.	.	.	.	.	.	.	.	.	.
8D/	.	.	.	.	.	.	.	.	8r	.	.	.	.
8r	.	.	.	.	.	.	.	.	8A/	na-	.	.	.
8r	.	.	.	.	.	.	.	.	8d\	-tu(m)	.	.	.
8c#\	.	.	.	.	.	.	.	.	8e\	pre-	.	.	.
=55	=55	=55	=55	=55	=55	=55	=55	=55	=55	=55	=55	=55	=55
*	*	*	*	*	*	*	*	*	*Xtuplet	*	*	*	*
8d\L	.	0r	0r	.	00r	.	1ryy	.	24f#\LL	-ca-	1ryy	.	.
.	.	.	.	.	.	.	.	.	24g\	.	.	.	.
.	.	.	.	.	.	.	.	.	24f#\JJ	.	.	.	.
8A\J	.	.	.	.	.	.	.	.	24e\LL	.	.	.	.
.	.	.	.	.	.	.	.	.	24f#\	.	.	.	.
.	.	.	.	.	.	.	.	.	24e\JJ	.	.	.	.
8D\L	.	.	.	.	.	.	.	.	24d\LL	.	.	.	.
.	.	.	.	.	.	.	.	.	24e\	.	.	.	.
.	.	.	.	.	.	.	.	.	24d\JJ	.	.	.	.
8A\J	.	.	.	.	.	.	.	.	24e\LL	.	.	.	.
.	.	.	.	.	.	.	.	.	24f#\	.	.	.	.
.	.	.	.	.	.	.	.	.	24e\JJ	.	.	.	.
!LO:TX:a:t=P:problem=custos użyty jako łamanie pięciolinii	!	!	!	!	!	!	!	!	!	!	!	!	!
!LO:LB:g=original	!	!	!	!	!	!	!	!	!	!	!	!	!
!	!	!	!	!	!	!	!	!	!LO:LB:g=original	!	!	!	!
8d\L	.	.	.	.	.	.	.	.	24f#\LL	.	.	.	.
.	.	.	.	.	.	.	.	.	24g\	.	.	.	.
.	.	.	.	.	.	.	.	.	24f#\JJ	.	.	.	.
8A\J	.	.	.	.	.	.	.	.	24e\LL	.	.	.	.
.	.	.	.	.	.	.	.	.	24f#\	.	.	.	.
.	.	.	.	.	.	.	.	.	24e\JJ	.	.	.	.
8D\L	.	.	.	.	.	.	.	.	24d\LL	.	.	.	.
.	.	.	.	.	.	.	.	.	24e\	.	.	.	.
.	.	.	.	.	.	.	.	.	24d\JJ	.	.	.	.
8A\J	.	.	.	.	.	.	.	.	24e\LL	.	.	.	.
.	.	.	.	.	.	.	.	.	24f#\	.	.	.	.
.	.	.	.	.	.	.	.	.	24e\JJ	.	.	.	.
=56	=56	=56	=56	=56	=56	=56	=56	=56	=56	=56	=56	=56	=56
8d\L	.	.	.	.	.	.	1ryy	.	16f#\	.	1ryy	.	.
.	.	.	.	.	.	.	.	.	16e\	-ve-	.	.	.
8A\	.	.	.	.	.	.	.	.	8d\	-re	.	.	.
8B\	.	.	.	.	.	.	.	.	4r	.	.	.	.
8c#\J	.	.	.	.	.	.	.	.	.	.	.	.	.
8d\	.	.	.	.	.	.	.	.	8r	.	.	.	.
8r	.	.	.	.	.	.	.	.	8A/	na-	.	.	.
8r	.	.	.	.	.	.	.	.	8.d\	-tu(m)	.	.	.
8c#\	.	.	.	.	.	.	.	.	.	.	.	.	.
.	.	.	.	.	.	.	.	.	16e\	pre-	.	.	.
!	!	!LO:TX:b:t=P:problem=brak kreski taktowej	!	!	!	!	!	!	!	!	!	!	!
=57	=57	=57	=57	=57	=57	=57	=57	=57	=57	=57	=57	=57	=57
8d\L	.	1r	1r	.	.	.	1ryy	.	24f#\LL	-ca-	1ryy	.	.
.	.	.	.	.	.	.	.	.	24g\	.	.	.	.
.	.	.	.	.	.	.	.	.	24f#\JJ	.	.	.	.
8A\J	.	.	.	.	.	.	.	.	24e\LL	.	.	.	.
.	.	.	.	.	.	.	.	.	24f#\	.	.	.	.
.	.	.	.	.	.	.	.	.	24e\JJ	.	.	.	.
8D\L	.	.	.	.	.	.	.	.	24d\LL	.	.	.	.
.	.	.	.	.	.	.	.	.	24e\	.	.	.	.
.	.	.	.	.	.	.	.	.	24d\JJ	.	.	.	.
8A\J	.	.	.	.	.	.	.	.	24e\LL	.	.	.	.
.	.	.	.	.	.	.	.	.	24f#\	.	.	.	.
.	.	.	.	.	.	.	.	.	24e\JJ	.	.	.	.
8d\L	.	.	.	.	.	.	.	.	24f#\LL	.	.	.	.
.	.	.	.	.	.	.	.	.	24g\	.	.	.	.
.	.	.	.	.	.	.	.	.	24f#\JJ	.	.	.	.
8A\J	.	.	.	.	.	.	.	.	24e\LL	.	.	.	.
.	.	.	.	.	.	.	.	.	24f#\	.	.	.	.
.	.	.	.	.	.	.	.	.	24e\JJ	.	.	.	.
8D\L	.	.	.	.	.	.	.	.	24d\LL	.	.	.	.
.	.	.	.	.	.	.	.	.	24e\	.	.	.	.
.	.	.	.	.	.	.	.	.	24d\JJ	.	.	.	.
8A\J	.	.	.	.	.	.	.	.	24e\LL	.	.	.	.
.	.	.	.	.	.	.	.	.	24f#\	.	.	.	.
.	.	.	.	.	.	.	.	.	24e\JJ	.	.	.	.
!	!	!LO:TX:b:t=P:problem=brak kreski taktowej	!LO:TX:b:t=P:problem=brak kreski taktowej	!	!	!	!	!	!	!	!	!	!
=58	=58	=58	=58	=58	=58	=58	=58	=58	=58	=58	=58	=58	=58
8d\L	.	2r	2r	.	.	.	1ryy	.	16f#\LL	.	1ryy	.	.
.	.	.	.	.	.	.	.	.	16e\	.	.	.	.
8F#\	.	.	.	.	.	.	.	.	16d\	.	.	.	.
.	.	.	.	.	.	.	.	.	16e\JJ	.	.	.	.
!	!	!	!	!	!	!	!	!	!LO:LB:g=original	!	!	!	!
8G\	.	.	.	.	.	.	.	.	8.c#\	.	.	.	.
8A\J	.	.	.	.	.	.	.	.	.	.	.	.	.
.	.	.	.	.	.	.	.	.	16c#\	-ve-	.	.	.
!	!	!	!LO:TX:i:b:t=Ritonello	!	!	!	!	!	!	!	!	!	!
!	!	!	!LO:TX:a:i:t=Solo	!	!	!	!	!	!	!	!	!	!
4D/	.	4a/	8dd\L	.	.	.	.	.	4d\	-re	.	.	.
.	.	.	16dd\L	.	.	.	.	.	.	.	.	.	.
.	.	.	16dd\JJ	.	.	.	.	.	.	.	.	.	.
8r	.	8r	8dd\L	.	.	.	.	.	4r	.	.	.	.
8D/	.	8a/	16a\L	.	.	.	.	.	.	.	.	.	.
.	.	.	16dd\JJ	.	.	.	.	.	.	.	.	.	.
=59	=59	=59	=59	=59	=59	=59	=59	=59	=59	=59	=59	=59	=59
!	!	!	!	!	!	!	!	!	!LO:TX:i:b:t=Baſso	!	!	!	!
4AA/	.	4cc#\	8ee\L	.	00rG	.	1ryy	.	00r	.	1ryy	.	.
.	.	.	16ee\L	.	.	.	.	.	.	.	.	.	.
.	.	.	16ee\JJ	.	.	.	.	.	.	.	.	.	.
8r	.	8r	8ee\L	.	.	.	.	.	.	.	.	.	.
8AA/	.	8cc#\	16a\L	.	.	.	.	.	.	.	.	.	.
.	.	.	16ee\JJ	.	.	.	.	.	.	.	.	.	.
!	!	!LO:TX:a:t=P:problem=mixed beam	!	!	!	!	!	!	!	!	!	!	!
8D\L	.	8dd\L	16ff#\LL	.	.	.	.	.	.	.	.	.	.
.	.	.	16ee\	.	.	.	.	.	.	.	.	.	.
8E\	.	8cc#\	16dd\	.	.	.	.	.	.	.	.	.	.
.	.	.	16ee\JJ	.	.	.	.	.	.	.	.	.	.
8F#\	.	8dd\	8ff#\L	.	.	.	.	.	.	.	.	.	.
8G\J	.	8g/J	16ee\L	.	.	.	.	.	.	.	.	.	.
.	.	.	16dd\JJ	.	.	.	.	.	.	.	.	.	.
=60	=60	=60	=60	=60	=60	=60	=60	=60	=60	=60	=60	=60	=60
8A\L	.	4a/	8ee\L	.	.	.	1ryy	.	.	.	1ryy	.	.
16A\L	.	.	8a\J	.	.	.	.	.	.	.	.	.	.
16A\JJ	.	.	.	.	.	.	.	.	.	.	.	.	.
!LO:TX:a:t=P:problem=mixed beam	!	!	!	!	!	!	!	!	!	!	!	!	!
8d\L	.	8r	8r	.	.	.	.	.	.	.	.	.	.
8D/J	.	8ff#\	8ff#\	.	.	.	.	.	.	.	.	.	.
!LO:TX:a:t=P:problem=custos użyty jako łamanie pięciolinii	!	!	!	!	!	!	!	!	!	!	!	!	!
!LO:LB:g=original	!	!	!	!	!	!	!	!	!	!	!	!	!
!	!	!	!LO:LB:g=original	!	!	!	!	!	!	!	!	!	!
4G\	.	16gg\LL	16bb\LL	.	.	.	.	.	.	.	.	.	.
.	.	16ff#\	16aa\	.	.	.	.	.	.	.	.	.	.
.	.	16ee\	16gg\	.	.	.	.	.	.	.	.	.	.
.	.	16ff#\JJ	16aa\JJ	.	.	.	.	.	.	.	.	.	.
!	!	!LO:TX:a:t=P:problem=mixed beam	!LO:TX:a:t=P:problem=mixed beam	!	!	!	!	!	!	!	!	!	!
8r	.	16gg\LL	16bb\LL	.	.	.	.	.	.	.	.	.	.
.	.	16e/	16g/	.	.	.	.	.	.	.	.	.	.
8E\	X 6	16e/	16g/	.	.	.	.	.	.	.	.	.	.
.	.	16e/JJ	16g/JJ	.	.	.	.	.	.	.	.	.	.
!	!	!LO:LB:g=original	!	!	!	!	!	!	!	!	!	!	!
=61	=61	=61	=61	=61	=61	=61	=61	=61	=61	=61	=61	=61	=61
4F#\	X 6	16ff#\LL	16aa\LL	.	.	.	1ryy	.	.	.	1ryy	.	.
.	.	16ee\	16gg\	.	.	.	.	.	.	.	.	.	.
.	.	16dd\	16ff#\	.	.	.	.	.	.	.	.	.	.
.	.	16ee\JJ	16gg\JJ	.	.	.	.	.	.	.	.	.	.
!	!	!LO:TX:a:t=P:problem=mixed beam	!LO:TX:a:t=P:problem=mixed beam	!	!	!	!	!	!	!	!	!	!
8r	.	16ff#\LL	16aa\LL	.	.	.	.	.	.	.	.	.	.
.	.	16d/	16f#/	.	.	.	.	.	.	.	.	.	.
8D\	.	16d/	16f#/	.	.	.	.	.	.	.	.	.	.
.	.	16d/JJ	16f#/JJ	.	.	.	.	.	.	.	.	.	.
4E\	.	16ee\LL	16gg\LL	.	.	.	.	.	.	.	.	.	.
.	.	16dd\	16ff#\	.	.	.	.	.	.	.	.	.	.
.	.	16cc#\	16ee\	.	.	.	.	.	.	.	.	.	.
.	.	16dd\JJ	16ff#\JJ	.	.	.	.	.	.	.	.	.	.
!	!	!LO:TX:a:t=P:problem=mixed beam	!	!	!	!	!	!	!	!	!	!	!
!	!	!	!LO:TX:a:t=P:problem=mixed beam	!	!	!	!	!	!	!	!	!	!
8r	.	16ee\LL	16gg\LL	.	.	.	.	.	.	.	.	.	.
.	.	16c#/	16e/	.	.	.	.	.	.	.	.	.	.
8C#/	.	16c#/	16e/	.	.	.	.	.	.	.	.	.	.
.	.	16c#/JJ	16e/JJ	.	.	.	.	.	.	.	.	.	.
=62	=62	=62	=62	=62	=62	=62	=62	=62	=62	=62	=62	=62	=62
!LO:TX:a:t=P:problem=mixed beam	!	!	!	!	!	!	!	!	!	!	!	!	!
8D\L	.	16dd\LL	16ff#\LL	.	.	.	1ryy	.	.	.	1ryy	.	.
.	.	16ff#\	16aa\	.	.	.	.	.	.	.	.	.	.
8G\	.	16ee\	16gg\	.	.	.	.	.	.	.	.	.	.
.	.	16dd\JJ	16ff#\JJ	.	.	.	.	.	.	.	.	.	.
8A\	.	8.cc#X\L	16ee\LL	.	.	.	.	.	.	.	.	.	.
.	X 4	.	16gg\	.	.	.	.	.	.	.	.	.	.
8AA/J	X 3	.	16ff#\	.	.	.	.	.	.	.	.	.	.
.	.	16cc#\Jk	16ee\JJ	.	.	.	.	.	.	.	.	.	.
8D\L	.	4dd\	4dd\	.	.	.	.	.	.	.	.	.	.
16A\L	.	.	.	.	.	.	.	.	.	.	.	.	.
16A\JJ	.	.	.	.	.	.	.	.	.	.	.	.	.
!LO:TX:a:t=P:problem=mixed beam	!	!	!	!	!	!	!	!	!	!	!	!	!
8d\L	.	8r	8r	.	.	.	.	.	.	.	.	.	.
8D/J	.	8ff#\	8aa\	.	.	.	.	.	.	.	.	.	.
=63	=63	=63	=63	=63	=63	=63	=63	=63	=63	=63	=63	=63	=63
4G\	.	16gg\LL	16bb\LL	.	0rA	.	1ryy	.	00r	.	1ryy	.	.
.	.	16ff#\	16aa\	.	.	.	.	.	.	.	.	.	.
.	.	16ee\	16gg\	.	.	.	.	.	.	.	.	.	.
.	.	16ff#\JJ	16aa\JJ	.	.	.	.	.	.	.	.	.	.
!	!	!LO:TX:a:t=P:problem=mixed beam	!LO:TX:a:t=P:problem=mixed beam	!	!	!	!	!	!	!	!	!	!
8r	.	16gg\LL	16bb\LL	.	.	.	.	.	.	.	.	.	.
.	.	16e/	16g/	.	.	.	.	.	.	.	.	.	.
8E\	X 6	16e/	16g/	.	.	.	.	.	.	.	.	.	.
.	.	16e/JJ	16g/JJ	.	.	.	.	.	.	.	.	.	.
4F#\	X 6	16ff#\LL	16aa\LL	.	.	.	.	.	.	.	.	.	.
.	.	16ee\	16gg\	.	.	.	.	.	.	.	.	.	.
.	.	16dd\	16ff#\	.	.	.	.	.	.	.	.	.	.
.	.	16ee\JJ	16gg\JJ	.	.	.	.	.	.	.	.	.	.
!	!	!LO:TX:a:t=P:problem=mixed beam	!LO:TX:a:t=P:problem=mixed beam	!	!	!	!	!	!	!	!	!	!
8r	.	16ff#\LL	16aa\LL	.	.	.	.	.	.	.	.	.	.
.	.	16d/	16f#/	.	.	.	.	.	.	.	.	.	.
8D\	.	16d/	16f#/	.	.	.	.	.	.	.	.	.	.
.	.	16d/JJ	16f#/JJ	.	.	.	.	.	.	.	.	.	.
=64	=64	=64	=64	=64	=64	=64	=64	=64	=64	=64	=64	=64	=64
4E\	X 6	16ee\LL	16gg\LL	.	.	.	1ryy	.	.	.	1ryy	.	.
.	.	16dd\	16ff#\	.	.	.	.	.	.	.	.	.	.
.	.	16cc#\	16ee\	.	.	.	.	.	.	.	.	.	.
.	.	16dd\JJ	16ff#\JJ	.	.	.	.	.	.	.	.	.	.
!	!	!LO:TX:a:t=P:problem=mixed beam	!LO:TX:a:t=P:problem=mixed beam	!	!	!	!	!	!	!	!	!	!
8r	.	16ee\LL	16gg\LL	.	.	.	.	.	.	.	.	.	.
.	.	16c#/	16e/	.	.	.	.	.	.	.	.	.	.
8C#/	.	16c#/	16e/	.	.	.	.	.	.	.	.	.	.
.	.	16c#/JJ	16e/JJ	.	.	.	.	.	.	.	.	.	.
!LO:TX:a:t=P:problem=mixed beam	!	!	!	!	!	!	!	!	!	!	!	!	!
!	!	!LO:LB:g=original	!	!	!	!	!	!	!	!	!	!	!
8D\L	.	16dd\LL	16ff#\LL	.	.	.	.	.	.	.	.	.	.
.	.	16ff#\	16aa\	.	.	.	.	.	.	.	.	.	.
8G\	.	16ee\	16gg\	.	.	.	.	.	.	.	.	.	.
.	.	16dd\JJ	16ff#\JJ	.	.	.	.	.	.	.	.	.	.
8A\	X 4	8.cc#X\L	16ee\LL	.	.	.	.	.	.	.	.	.	.
.	.	.	16gg\	.	.	.	.	.	.	.	.	.	.
8AA/J	X 3	.	16ff#\	.	.	.	.	.	.	.	.	.	.
.	.	16cc#\Jk	16ee\JJ	.	.	.	.	.	.	.	.	.	.
!	!	!	!	!	!	!	!LO:TX:a:t=P:problem=podwójna kreska	!	!	!	!	!	!
!	!	!	!LO:LB:g=original	!	!	!	!	!	!	!	!	!	!
=65	=65	=65	=65	=65	=65	=65	=65||	=65||	=65	=65	=65	=65	=65
!	!	!	!	!	!	!	!	!	!	!	!LO:TX:t=P:problem=zapis "Te ab originali\nRitonelo T[a]C[et]" na pięciolinii	!	!
!	!	!	!	!	!	!	!LO:TX:i:a:t=Te ab originali\nRitonelo T[a].C[et].	!	!	!	!LO:TX:i:a:t=Te ab originali\nRitonelo T[a]C[et]	!	!
!	!	!	!	!	!	!	!LO:TX:t=P:problem=zapis "Te ab originali Ritonelo T[a].C[et]."na pięciolinii	!	!	!	!	!	!
8D\L	.	4dd\	4dd\	.	4r	.	1ryy	.	.	.	1ryy	.	.
8E\	.	.	.	.	.	.	.	.	.	.	.	.	.
8F#\	X 6	4r	4r	.	8r	.	.	.	.	.	.	.	.
8D\J	.	.	.	.	8D/	Te	.	.	.	.	.	.	.
8C#/L	X 6	2r	2r	.	8A\	ab	.	.	.	.	.	.	.
8BB/	.	.	.	.	8A\	o-	.	.	.	.	.	.	.
8C#/	.	.	.	.	8A\	-ri-	.	.	.	.	.	.	.
8AA/J	.	.	.	.	8A\	-gi-	.	.	.	.	.	.	.
!LO:LB:g=original	!	!	!	!	!	!	!	!	!	!	!	!	!
=66	=66	=66	=66	=66	=66	=66	=66	=66	=66	=66	=66	=66	=66
!LO:TX:a:t=P:problem=mixed beam	!	!	!	!	!	!	!	!	!	!	!	!	!
8D/L	.	00r	00r	.	8F#\	-na-	1ryy	.	.	.	1ryy	.	.
8d\	.	.	.	.	8D\	-li	.	.	.	.	.	.	.
8c#\	.	.	.	.	4r	.	.	.	.	.	.	.	.
8A\J	.	.	.	.	.	.	.	.	.	.	.	.	.
!LO:TX:a:t=P:problem=mixed beam	!	!	!	!	!	!	!	!	!	!	!	!	!
8B\L	.	.	.	.	2r	.	.	.	.	.	.	.	.
.	X 6	.	.	.	.	.	.	.	.	.	.	.	.
8G\	X 5	.	.	.	.	.	.	.	.	.	.	.	.
8A\	.	.	.	.	.	.	.	.	.	.	.	.	.
.	X 4	.	.	.	.	.	.	.	.	.	.	.	.
8AA/J	X 3	.	.	.	.	.	.	.	.	.	.	.	.
=67	=67	=67	=67	=67	=67	=67	=67	=67	=67	=67	=67	=67	=67
8D\L	.	.	.	.	4r	.	1ryy	.	00re	.	1ryy	.	.
8E\	.	.	.	.	.	.	.	.	.	.	.	.	.
8F#\	.	.	.	.	8r	.	.	.	.	.	.	.	.
8D\J	.	.	.	.	8D\	Te	.	.	.	.	.	.	.
8C#/L	X 6	.	.	.	8A\	ab	.	.	.	.	.	.	.
8BB/	.	.	.	.	8A\	o-	.	.	.	.	.	.	.
8C#/	.	.	.	.	8A\	-ri-	.	.	.	.	.	.	.
8AA/J	.	.	.	.	8A\	-gi-	.	.	.	.	.	.	.
=68	=68	=68	=68	=68	=68	=68	=68	=68	=68	=68	=68	=68	=68
8D\L	.	.	.	.	8F#\	-na-	1ryy	.	.	.	1ryy	.	.
8F#\	.	.	.	.	8D\	-li	.	.	.	.	.	.	.
8G\	.	.	.	.	4r	.	.	.	.	.	.	.	.
8A\J	X 4	.	.	.	.	.	.	.	.	.	.	.	.
.	X 3	.	.	.	.	.	.	.	.	.	.	.	.
8D/	.	.	.	.	8AA/	la-	.	.	.	.	.	.	.
8r	.	.	.	.	8AA/	-be	.	.	.	.	.	.	.
8r	.	.	.	.	8D\	ma-	.	.	.	.	.	.	.
8c#\	.	.	.	.	8E\	-tris	.	.	.	.	.	.	.
!	!	!	!	!	!LO:LB:g=original	!	!	!	!	!	!	!	!
=69	=69	=69	=69	=69	=69	=69	=69	=69	=69	=69	=69	=69	=69
*	*	*	*	*	*Xtuplet	*	*	*	*	*	*	*	*
8d\L	.	.	.	.	24F#\LL	E-	1ryy	.	.	.	1ryy	.	.
.	.	.	.	.	24G\	.	.	.	.	.	.	.	.
.	.	.	.	.	24F#\JJ	.	.	.	.	.	.	.	.
8A\	.	.	.	.	24E\LL	.	.	.	.	.	.	.	.
.	.	.	.	.	24F#\	.	.	.	.	.	.	.	.
.	.	.	.	.	24E\JJ	.	.	.	.	.	.	.	.
8D\	.	.	.	.	24D\LL	.	.	.	.	.	.	.	.
.	.	.	.	.	24E\	.	.	.	.	.	.	.	.
.	.	.	.	.	24D\JJ	.	.	.	.	.	.	.	.
8A\J	.	.	.	.	24E\LL	.	.	.	.	.	.	.	.
.	.	.	.	.	24F#\	.	.	.	.	.	.	.	.
.	.	.	.	.	24E\JJ	.	.	.	.	.	.	.	.
8d\L	.	.	.	.	24F#\LL	.	.	.	.	.	.	.	.
.	.	.	.	.	24G\	.	.	.	.	.	.	.	.
.	.	.	.	.	24F#\JJ	.	.	.	.	.	.	.	.
8A\	.	.	.	.	24E\LL	.	.	.	.	.	.	.	.
.	.	.	.	.	24F#\	.	.	.	.	.	.	.	.
.	.	.	.	.	24E\JJ	.	.	.	.	.	.	.	.
8D\	.	.	.	.	24D\LL	.	.	.	.	.	.	.	.
.	.	.	.	.	24E\	.	.	.	.	.	.	.	.
.	.	.	.	.	24D\JJ	.	.	.	.	.	.	.	.
8A\J	.	.	.	.	24E\LL	.	.	.	.	.	.	.	.
.	.	.	.	.	24F#\	.	.	.	.	.	.	.	.
.	.	.	.	.	24E\JJ	.	.	.	.	.	.	.	.
=70	=70	=70	=70	=70	=70	=70	=70	=70	=70	=70	=70	=70	=70
8d\L	.	0r	0r	.	8F#\	-vae	1ryy	.	.	.	1ryy	.	.
8A\	.	.	.	.	8E\	.	.	.	.	.	.	.	.
8B\	.	.	.	.	4r	.	.	.	.	.	.	.	.
8c#\J	.	.	.	.	.	.	.	.	.	.	.	.	.
8d\	.	.	.	.	8AA/	la-	.	.	.	.	.	.	.
8r	.	.	.	.	8AA/	-be	.	.	.	.	.	.	.
8r	.	.	.	.	8D\	ma-	.	.	.	.	.	.	.
8c#\	.	.	.	.	8E\	-tris	.	.	.	.	.	.	.
=71	=71	=71	=71	=71	=71	=71	=71	=71	=71	=71	=71	=71	=71
8d\L	.	.	.	.	24F#\LL	E-	1ryy	.	00re	.	1ryy	.	.
.	.	.	.	.	24G\	.	.	.	.	.	.	.	.
.	.	.	.	.	24F#\JJ	.	.	.	.	.	.	.	.
8A\	.	.	.	.	24E\LL	.	.	.	.	.	.	.	.
.	.	.	.	.	24F#\	.	.	.	.	.	.	.	.
.	.	.	.	.	24E\JJ	.	.	.	.	.	.	.	.
8D\	.	.	.	.	24D\LL	.	.	.	.	.	.	.	.
.	.	.	.	.	24E\	.	.	.	.	.	.	.	.
.	.	.	.	.	24D\JJ	.	.	.	.	.	.	.	.
!	!	!	!	!	!LO:LB:g=original	!	!	!	!	!	!	!	!
8A\J	.	.	.	.	24E\LL	.	.	.	.	.	.	.	.
.	.	.	.	.	24F#\	.	.	.	.	.	.	.	.
.	.	.	.	.	24E\JJ	.	.	.	.	.	.	.	.
!LO:TX:a:t=P:problem=custos użyty jako łamanie pięciolinii	!	!	!	!	!	!	!	!	!	!	!	!	!
!LO:LB:g=original	!	!	!	!	!	!	!	!	!	!	!	!	!
8d\L	.	.	.	.	24F#\LL	.	.	.	.	.	.	.	.
.	.	.	.	.	24G\	.	.	.	.	.	.	.	.
.	.	.	.	.	24F#\JJ	.	.	.	.	.	.	.	.
8A\	.	.	.	.	24E\LL	.	.	.	.	.	.	.	.
.	.	.	.	.	24F#\	.	.	.	.	.	.	.	.
.	.	.	.	.	24E\JJ	.	.	.	.	.	.	.	.
8D\	.	.	.	.	24D\LL	.	.	.	.	.	.	.	.
.	.	.	.	.	24E\	.	.	.	.	.	.	.	.
.	.	.	.	.	24D\JJ	.	.	.	.	.	.	.	.
8A\J	.	.	.	.	24E\LL	.	.	.	.	.	.	.	.
.	.	.	.	.	24F#\	.	.	.	.	.	.	.	.
.	.	.	.	.	24E\JJ	.	.	.	.	.	.	.	.
!	!	!LO:TX:b:t=P:problem=brak kreski taktowej	!LO:TX:b:t=P:problem=brak kreski taktowej	!	!	!	!	!	!	!	!	!	!
=72	=72	=72	=72	=72	=72	=72	=72	=72	=72	=72	=72	=72	=72
8d\L	.	2r	2r	.	16F#\LL	.	1ryy	.	.	.	1ryy	.	.
.	.	.	.	.	16G\	.	.	.	.	.	.	.	.
8F#\	.	.	.	.	16A\	.	.	.	.	.	.	.	.
.	.	.	.	.	16B\JJ	.	.	.	.	.	.	.	.
8G\	.	.	.	.	4E\	-væ	.	.	.	.	.	.	.
8A\J	.	.	.	.	.	.	.	.	.	.	.	.	.
!	!	!	!LO:TX:b:i:t=Ritonello	!	!	!	!	!	!	!	!	!	!
!	!	!	!LO:TX:i:a:t=Solo	!	!	!	!	!	!	!	!	!	!
4D/	.	4a/	8dd\L	.	4D\	.	.	.	.	.	.	.	.
.	.	.	16dd\L	.	.	.	.	.	.	.	.	.	.
.	.	.	16dd\JJ	.	.	.	.	.	.	.	.	.	.
8r	.	8r	8dd\L	.	4r	.	.	.	.	.	.	.	.
8D/	.	8a/	16a\L	.	.	.	.	.	.	.	.	.	.
.	.	.	16dd\JJ	.	.	.	.	.	.	.	.	.	.
!	!	!	!	!	!LO:TX:b:t=P:problem=brak kreski taktowej	!	!	!	!	!	!	!	!
=73	=73	=73	=73	=73	=73	=73	=73	=73	=73	=73	=73	=73	=73
4AA/	.	4cc#\	8ee\L	.	00r	.	1ryy	.	.	.	1ryy	.	.
.	.	.	16ee\L	.	.	.	.	.	.	.	.	.	.
.	.	.	16ee\JJ	.	.	.	.	.	.	.	.	.	.
8r	.	8r	8ee\L	.	.	.	.	.	.	.	.	.	.
8AA/	.	8cc#\	16a\L	.	.	.	.	.	.	.	.	.	.
.	.	.	16ee\JJ	.	.	.	.	.	.	.	.	.	.
8D\L	.	8dd\L	16ff#\LL	.	.	.	.	.	.	.	.	.	.
.	.	.	16ee\	.	.	.	.	.	.	.	.	.	.
8E\	.	8cc#\	16dd\	.	.	.	.	.	.	.	.	.	.
.	.	.	16ee\JJ	.	.	.	.	.	.	.	.	.	.
8F#\	.	8dd\	8ff#\L	.	.	.	.	.	.	.	.	.	.
8G\J	.	8b\J	16ee\L	.	.	.	.	.	.	.	.	.	.
.	.	.	16dd\JJ	.	.	.	.	.	.	.	.	.	.
=74	=74	=74	=74	=74	=74	=74	=74	=74	=74	=74	=74	=74	=74
8A\L	.	4a/	8ee\L	.	.	.	1ryy	.	.	.	1ryy	.	.
16A\L	.	.	8a\J	.	.	.	.	.	.	.	.	.	.
16A\JJ	.	.	.	.	.	.	.	.	.	.	.	.	.
!LO:TX:a:t=P:problem=mixed beam	!	!	!	!	!	!	!	!	!	!	!	!	!
8d\L	.	8r	8r	.	.	.	.	.	.	.	.	.	.
8D/J	.	8ff#\	8aa\	.	.	.	.	.	.	.	.	.	.
4G\	.	16gg\LL	16bb\LL	.	.	.	.	.	.	.	.	.	.
.	.	16ff#\	16aa\	.	.	.	.	.	.	.	.	.	.
.	.	16ee\	16gg\	.	.	.	.	.	.	.	.	.	.
.	.	16ff#\JJ	16aa\JJ	.	.	.	.	.	.	.	.	.	.
!	!	!LO:TX:a:t=P:problem=mixed beam	!LO:TX:a:t=P:problem=mixed beam	!	!	!	!	!	!	!	!	!	!
8r	.	16gg\LL	16bb\LL	.	.	.	.	.	.	.	.	.	.
.	.	16e/	16g/	.	.	.	.	.	.	.	.	.	.
8E\	X 6	16e/	16g/	.	.	.	.	.	.	.	.	.	.
.	.	16e/JJ	16g/JJ	.	.	.	.	.	.	.	.	.	.
=75	=75	=75	=75	=75	=75	=75	=75	=75	=75	=75	=75	=75	=75
4F#\	X 6	16ff#\LL	16aa\LL	.	.	.	1ryy	.	00r	.	1ryy	.	.
.	.	16ee\	16gg\	.	.	.	.	.	.	.	.	.	.
.	.	16dd\	16ff#\	.	.	.	.	.	.	.	.	.	.
.	.	16ee\JJ	16gg\JJ	.	.	.	.	.	.	.	.	.	.
!	!	!LO:TX:a:t=P:problem=mixed beam	!LO:TX:a:t=P:problem=mixed beam	!	!	!	!	!	!	!	!	!	!
8r	.	16ff#\LL	16aa\LL	.	.	.	.	.	.	.	.	.	.
.	.	16d/	16f#/	.	.	.	.	.	.	.	.	.	.
8D\	.	16d/	16f#/	.	.	.	.	.	.	.	.	.	.
.	.	16d/JJ	16f#/JJ	.	.	.	.	.	.	.	.	.	.
4E\	.	16ee\LL	16gg\LL	.	.	.	.	.	.	.	.	.	.
.	.	16dd\	16ff#\	.	.	.	.	.	.	.	.	.	.
.	.	16cc#\	16ee\	.	.	.	.	.	.	.	.	.	.
.	.	16dd\JJ	16ff#\JJ	.	.	.	.	.	.	.	.	.	.
!	!	!LO:TX:a:t=P:problem=mixed beam	!LO:TX:a:t=P:problem=mixed beam	!	!	!	!	!	!	!	!	!	!
8r	.	16ee\LL	16gg\LL	.	.	.	.	.	.	.	.	.	.
.	.	16c#/	16e/	.	.	.	.	.	.	.	.	.	.
8C#/	.	16c#/	16e/	.	.	.	.	.	.	.	.	.	.
.	.	16c#/JJ	16e/JJ	.	.	.	.	.	.	.	.	.	.
!	!	!LO:PB:g=original	!	!	!	!	!	!	!	!	!	!	!
=76	=76	=76	=76	=76	=76	=76	=76	=76	=76	=76	=76	=76	=76
!LO:TX:a:t=P:problem=mixed beam	!	!	!	!	!	!	!	!	!	!	!	!	!
8D\L	.	16dd\LL	16ff#\LL	.	.	.	1ryy	.	.	.	1ryy	.	.
.	.	16ff#\	16aa\	.	.	.	.	.	.	.	.	.	.
8G\	.	16ee\	16gg\	.	.	.	.	.	.	.	.	.	.
.	.	16dd\JJ	16ff#\JJ	.	.	.	.	.	.	.	.	.	.
8A\	X 4	8.cc#X\L	8ee\L	.	.	.	.	.	.	.	.	.	.
8AA/J	X 3	.	16ff#\L	.	.	.	.	.	.	.	.	.	.
.	.	16dd\Jk	16ee\JJ	.	.	.	.	.	.	.	.	.	.
8D\L	.	4dd\	4dd\	.	.	.	.	.	.	.	.	.	.
16A\L	.	.	.	.	.	.	.	.	.	.	.	.	.
16A\JJ	.	.	.	.	.	.	.	.	.	.	.	.	.
!LO:TX:a:t=P:problem=mixed beam	!	!	!	!	!	!	!	!	!	!	!	!	!
8d\L	.	8r	8r	.	.	.	.	.	.	.	.	.	.
8D/J	.	8ff#\	8aa\	.	.	.	.	.	.	.	.	.	.
!LO:LB:g=original	!	!	!	!	!	!	!	!	!	!	!	!	!
!	!	!	!LO:PB:g=original	!	!	!	!	!	!	!	!	!	!
=77	=77	=77	=77	=77	=77	=77	=77	=77	=77	=77	=77	=77	=77
4G\	.	16gg\LL	16bb\LL	.	0r	.	1ryy	.	.	.	1ryy	.	.
.	.	16ff#\	16aa\	.	.	.	.	.	.	.	.	.	.
.	.	16ee\	16gg\	.	.	.	.	.	.	.	.	.	.
.	.	16ff#\JJ	16aa\JJ	.	.	.	.	.	.	.	.	.	.
!	!	!LO:TX:a:t=P:problem=mixed beam	!LO:TX:a:t=P:problem=mixed beam	!	!	!	!	!	!	!	!	!	!
8r	.	16gg\LL	16bb\LL	.	.	.	.	.	.	.	.	.	.
.	.	16e/	16g/	.	.	.	.	.	.	.	.	.	.
8E\	X 6	16e/	16g/	.	.	.	.	.	.	.	.	.	.
.	.	16e/JJ	16g/JJ	.	.	.	.	.	.	.	.	.	.
4F#\	.	16ff#\LL	16aa\LL	.	.	.	.	.	.	.	.	.	.
.	.	16ee\	16gg\	.	.	.	.	.	.	.	.	.	.
.	.	16dd\	16ff#\	.	.	.	.	.	.	.	.	.	.
.	.	16ee\JJ	16gg\JJ	.	.	.	.	.	.	.	.	.	.
!	!	!LO:TX:a:t=P:problem=mixed beam	!LO:TX:a:t=P:problem=mixed beam	!	!	!	!	!	!	!	!	!	!
8r	.	16ff#\LL	16aa\LL	.	.	.	.	.	.	.	.	.	.
.	.	16d/	16f#/	.	.	.	.	.	.	.	.	.	.
8D\	.	16d/	16f#/	.	.	.	.	.	.	.	.	.	.
.	.	16d/JJ	16f#/JJ	.	.	.	.	.	.	.	.	.	.
=78	=78	=78	=78	=78	=78	=78	=78	=78	=78	=78	=78	=78	=78
4E\	X 6	16ee\LL	16gg\LL	.	.	.	1ryy	.	.	.	1ryy	.	.
.	.	16dd\	16ff#\	.	.	.	.	.	.	.	.	.	.
.	.	16cc#\	16ee\	.	.	.	.	.	.	.	.	.	.
.	.	16dd\JJ	16ff#\JJ	.	.	.	.	.	.	.	.	.	.
!	!	!LO:TX:a:t=P:problem=mixed beam	!LO:TX:a:t=P:problem=mixed beam	!	!	!	!	!	!	!	!	!	!
8r	.	16ee\LL	16gg\LL	.	.	.	.	.	.	.	.	.	.
.	.	16c#/	16e/	.	.	.	.	.	.	.	.	.	.
8C#/	.	16c#/	16e/	.	.	.	.	.	.	.	.	.	.
.	.	16c#/JJ	16e/JJ	.	.	.	.	.	.	.	.	.	.
!LO:TX:a:t=P:problem=mixed beam	!	!	!	!	!	!	!	!	!	!	!	!	!
8D\L	.	16dd\LL	16ff#\LL	.	.	.	.	.	.	.	.	.	.
.	.	16ff#\	16aa\	.	.	.	.	.	.	.	.	.	.
8G\	.	16ee\	16gg\	.	.	.	.	.	.	.	.	.	.
.	.	16dd\JJ	16ff#\JJ	.	.	.	.	.	.	.	.	.	.
8A\	X 4	8.cc#\L	16ee\LL	.	.	.	.	.	.	.	.	.	.
.	.	.	16gg\	.	.	.	.	.	.	.	.	.	.
8AA/J	X 3	.	16ff#\	.	.	.	.	.	.	.	.	.	.
.	.	16cc#\Jk	16ee\JJ	.	.	.	.	.	.	.	.	.	.
=79	=79	=79	=79	=79	=79	=79	=79	=79	=79	=79	=79	=79	=79
!	!	!	!	!	!	!	!	!	!LO:TX:a:t=P:problem=brak tego taktu w źródle	!	!	!	!
4D\	.	4dd\	4dd\	.	1r	.	1ryy	.	1ryy	.	1ryy	.	.
4r	.	4r	4r	.	.	.	.	.	.	.	.	.	.
2r	.	2r	2r	.	.	.	.	.	.	.	.	.	.
!	!	!	!	!	!LO:TX:a:t=P:problem=kreska z obustronną repetycją	!	!	!	!	!	!LO:LB:g=original	!	!
=80||	=80||	=80||	=80||	=80||	=80:|!|:	=80:|!|:	=80||	=80||	=80||	=80||	=80||	=80||	=80||
*M4/4	*	*M4/4	*M4/4	*	*M4/4	*	*M4/4	*	*	*	*M4/4	*	*
*met(C.)	*	*met(C.)	*met(C.)	*	*met(c|)	*	*met(C.)	*	*	*	*met(C.)	*	*
!LO:TX:a:t=P:problem=mixed beam	!	!	!	!	!	!	!	!	!	!	!	!	!
!LO:TX:i:b:t=Solo:rj	!	!	!LO:TX:i:b:t=Alma	!	!	!	!	!	!	!	!	!	!
!LO:TX:i:a:t=Adagio:rj	!	!	!LO:TX:i:a:t=Can&colon;(to)	!	!	!	!LO:TX:i:a:t=Can(to)	!	!LO:TX:i:b:t=Canto	!	!	!	!LO:DY:a
!	!	!	!	!	!	!	!	!	!	!	!	!	!LO:HP:a:i:t=f.
8BB/L	.	00r	00r	.	00r	.	00rG	.	00r	.	4b\	Al-	f
8B\	.	.	.	.	.	.	.	.	.	.	.	.	.
8A#X\	X 6	.	.	.	.	.	.	.	.	.	4cc#\	-ma	.
8F#\J	.	.	.	.	.	.	.	.	.	.	.	.	.
*	*	*	*	*	*	*	*	*	*	*	*	*ij	*
8r	.	.	.	.	.	.	.	.	.	.	4dd\	Al-	.
8B\L	.	.	.	.	.	.	.	.	.	.	.	.	.
8A#X\	X 6	.	.	.	.	.	.	.	.	.	4cc#\	-ma	.
*	*	*	*	*	*	*	*	*	*	*	*	*Xij	*
8F#\J	.	.	.	.	.	.	.	.	.	.	.	.	.
=81	=81	=81	=81	=81	=81	=81	=81	=81	=81	=81	=81	=81	=81
8r	.	.	.	.	.	.	.	.	.	.	8b\	Al-	.
8B\L	X 6	.	.	.	.	.	.	.	.	.	8dd\	-ma	.
8A#X\	X 6	.	.	.	.	.	.	.	.	.	8cc#\	qua(m)	.
8Gn\J	X 6	.	.	.	.	.	.	.	.	.	8b\	e-	.
8r	.	.	.	.	.	.	.	.	.	.	8.a#X\	-le-	.
8F#\L	.	.	.	.	.	.	.	.	.	.	.	.	.
.	.	.	.	.	.	.	.	.	.	.	16g#X/	-ge-	.
8A#X\	X 6	.	.	.	.	.	.	.	.	.	4f#/	-rat	.
8F#\J	.	.	.	.	.	.	.	.	.	.	.	.	.
!LO:LB:g=original	!	!	!	!	!	!	!	!	!	!	!	!	!
=82	=82	=82	=82	=82	=82	=82	=82	=82	=82	=82	=82	=82	=82
8r	.	.	.	.	.	.	.	.	.	.	4b\	Al-	.
8B\L	.	.	.	.	.	.	.	.	.	.	.	.	.
8A#X\	.	.	.	.	.	.	.	.	.	.	4cc#\	-ma	.
8F#\J	.	.	.	.	.	.	.	.	.	.	.	.	.
*	*	*	*	*	*	*	*	*	*	*	*	*ij	*
8r	.	.	.	.	.	.	.	.	.	.	4dd\	Al-	.
8B\L	.	.	.	.	.	.	.	.	.	.	.	.	.
8A#X\	.	.	.	.	.	.	.	.	.	.	4cc#\	-ma	.
*	*	*	*	*	*	*	*	*	*	*	*	*Xij	*
8F#\J	.	.	.	.	.	.	.	.	.	.	.	.	.
=83	=83	=83	=83	=83	=83	=83	=83	=83	=83	=83	=83	=83	=83
8r	.	.	.	.	.	.	.	.	.	.	8b\	Al-	.
8B\L	.	.	.	.	.	.	.	.	.	.	8dd\	-ma	.
8A#X\	.	.	.	.	.	.	.	.	.	.	8cc#\	qua(m)	.
8Gn\J	.	.	.	.	.	.	.	.	.	.	8b\	e-	.
8r	.	.	.	.	.	.	.	.	.	.	8.a#X/	-le-	.
8F#\L	.	.	.	.	.	.	.	.	.	.	.	.	.
.	.	.	.	.	.	.	.	.	.	.	16g#X\	-ge-	.
8A#X\	.	.	.	.	.	.	.	.	.	.	4f#/	-rat	.
8F#\J	.	.	.	.	.	.	.	.	.	.	.	.	.
=84	=84	=84	=84	=84	=84	=84	=84	=84	=84	=84	=84	=84	=84
4B\	.	0r	0r	.	0r	.	0rB	.	0r	.	4r	.	.
!	!	!	!	!	!	!	!	!	!	!	!LO:PB:g=original	!	!
8F#\L	.	.	.	.	.	.	.	.	.	.	8cc#\	Ge-	.
8G#X\J	.	.	.	.	.	.	.	.	.	.	8b\	-ni-	.
!LO:TX:a:t=P:problem=mixed beam	!	!	!	!	!	!	!	!	!	!	!	!	!
8An\L	.	.	.	.	.	.	.	.	.	.	8a\	-tri-	.
8B\	.	.	.	.	.	.	.	.	.	.	8b\	-cem	.
8c#\	.	.	.	.	.	.	.	.	.	.	4g#X/	ve-	.
8C#/J	.	.	.	.	.	.	.	.	.	.	.	.	.
=85	=85	=85	=85	=85	=85	=85	=85	=85	=85	=85	=85	=85	=85
4F#\	.	.	.	.	.	.	.	.	.	.	4f#/	-re	.
8G#X\L	.	.	.	.	.	.	.	.	.	.	8cc#\	ge-	.
8G#\J	.	.	.	.	.	.	.	.	.	.	8b\	-ni-	.
!LO:TX:a:t=P:problem=mixed beam	!	!	!	!	!	!	!	!	!	!	!	!	!
8An\L	.	.	.	.	.	.	.	.	.	.	8a\	-tri-	.
8B\	.	.	.	.	.	.	.	.	.	.	8b\	-cem	.
8c#\	.	.	.	.	.	.	.	.	.	.	4g#X/	ve-	.
8C#/J	.	.	.	.	.	.	.	.	.	.	.	.	.
=86	=86	=86	=86	=86	=86	=86	=86	=86	=86	=86	=86	=86	=86
4F#\	.	1r	1r	.	1r	.	1rB	.	1r	.	4f#/	-re	.
4r	.	.	.	.	.	.	.	.	.	.	4r	.	.
2r	.	.	.	.	.	.	.	.	.	.	2re	.	.
!LO:LB:g=original	!	!	!	!	!	!	!	!	!	!	!	!	!
!	!	!LO:TX:a:t=P:problem=pojedyncza kreska taktowa	!	!	!	!	!	!	!	!	!	!	!
!	!	!LO:LB:g=original	!	!	!LO:TX:a:t=P:problem=kreska z obustronną repetycją	!	!	!	!	!	!	!	!
=87||	=87||	=87	=87||	=87||	=87:|!|:	=87:|!|:	=87||	=87||	=87||	=87||	=87||	=87||	=87||
*M4/4	*	*M4/4	*M4/4	*	*M4/4	*	*M4/4	*	*M4/4	*	*M4/4	*	*
*met(C.)	*	*met(c)	*met(C.)	*	*met(c|)	*	*met(C.)	*	*met(c)	*	*met(C.)	*	*
!LO:TX:i:b:t=Nulli prorsus	!	!LO:TX:i:b:t=Nulli prorsus	!LO:TX:a:t=P:problem=mixed beam	!	!	!	!	!	!	!	!	!	!
!LO:TX:i:a:t=Solo	!	!LO:TX:a:t=P:problem=mixed beamm	!LO:TX:i:a:t=Solo	!	!	!	!	!	!LO:TX:a:i:t=Tut:P:??:problem	!	!LO:TX:a:t=2	!	!
4BB/	.	8dd\L	8ff#\L	.	0r	.	0rG	.	0r	.	0re	.	.
.	.	8d/	8f#/	.	.	.	.	.	.	.	.	.	.
8r	.	8dd\	8ff#\	.	.	.	.	.	.	.	.	.	.
8E\	X 6	8ee\J	8gg\J	.	.	.	.	.	.	.	.	.	.
4B\	.	16dd\LL	16ff#\LL	.	.	.	.	.	.	.	.	.	.
.	.	16cc#\	16ee\	.	.	.	.	.	.	.	.	.	.
.	.	16b\	16dd\	.	.	.	.	.	.	.	.	.	.
.	.	16a\JJ	16cc#\JJ	.	.	.	.	.	.	.	.	.	.
8r	.	8dd\L	8b\L	.	.	.	.	.	.	.	.	.	.
8F#\	.	8cc#\J	8a#X\J	.	.	.	.	.	.	.	.	.	.
=88	=88	=88	=88	=88	=88	=88	=88	=88	=88	=88	=88	=88	=88
8B\L	.	8dd\L	8b\L	.	.	.	.	.	.	.	.	.	.
8A#X\	X 6	8ff#\	8cc#\J	.	.	.	.	.	.	.	.	.	.
8B\	.	8ff#\	8dd\L	.	.	.	.	.	.	.	.	.	.
.	X 7	.	.	.	.	.	.	.	.	.	.	.	.
8G\J	X 6	8gg\J	16cc#\L	.	.	.	.	.	.	.	.	.	.
.	.	.	16b\JJ	.	.	.	.	.	.	.	.	.	.
!	!	!	!LO:TX:a:t=P:problem=mixed beam	!	!	!	!	!	!	!	!	!	!
4F#\	.	4ff#\	8cc#\L	.	.	.	.	.	.	.	.	.	.
.	.	.	8f#/J	.	.	.	.	.	.	.	.	.	.
!LO:TX:a:t=P:problem=mixed beam	!	!	!	!	!	!	!	!	!	!	!	!	!
8BB/L	.	8dd\L	8ff#\L	.	.	.	.	.	.	.	.	.	.
8F#\J	.	8cc#\J	16bb\L	.	.	.	.	.	.	.	.	.	.
.	.	.	16aa\JJ	.	.	.	.	.	.	.	.	.	.
!	!	!	!LO:LB:g=original	!	!LO:TX:b:t=P:problem=brak kreski taktowej	!	!LO:TX:b:t=P:problem=brak kreski taktowej	!	!LO:TX:b:t=P:problem=brak kreski taktowej	!	!	!	!
=89	=89	=89	=89	=89	=89	=89	=89	=89	=89	=89	=89	=89	=89
!LO:TX:a:t=P:problem=mixed beam	!	!	!	!	!	!	!	!	!	!	!	!	!
8G\L	X 6	8b\L	16gg\LL	.	2r	.	2rG	.	2r	.	2re	.	.
.	.	.	16ff#\	.	.	.	.	.	.	.	.	.	.
8E\	X 7	8cc#\J	16ee\	.	.	.	.	.	.	.	.	.	.
.	.	.	16dd\JJ	.	.	.	.	.	.	.	.	.	.
!	!	!LO:TX:b:i:t=a	!	!	!	!	!	!	!	!	!	!	!
8F#\	X 4	4a#X/	8.cc#\L	.	.	.	.	.	.	.	.	.	.
8FF#/J	X 3	.	.	.	.	.	.	.	.	.	.	.	.
.	.	.	16b\Jk	.	.	.	.	.	.	.	.	.	.
!LO:TX:a:i:t=Tutti	!	!	!	!	!	!	!	!	!	!	!	!	!
4BB/	.	4b/	4b\	.	8B\	Nul-	8B\	Nul-	8f#\	Nul-	8dd\	Nul-	.
.	.	.	.	.	8B\	-li	8d\	-li	8f#\	-li	8dd\	-li	.
*	*	*	*	*	*	*ij	*	*ij	*	*ij	*	*ij	*
8r	.	4r	4r	.	8A#X\	Nul-	8A#X\	Nul-	8f#\	Nul-	8dd\	Nul-	.
8F#\	.	.	.	.	8F#\	-li	8c#\	-li	8f#\	-li	8cc#\	-li	.
*	*	*	*	*	*	*Xij	*	*Xij	*	*Xij	*	*Xij	*
!	!	!	!	!	!LO:PB:g=original	!	!	!	!	!	!	!	!
=90	=90	=90	=90	=90	=90	=90	=90	=90	=90	=90	=90	=90	=90
4B\	.	8b/L	8dd\L	.	8B\	pror-	8B\	pror-	8f#\	pror-	8dd\	pror-	.
.	.	8cc#/	8dd\	.	8B\	-sus	8B\	-sus	8f#\	-sus	8dd\	-sus	.
!	!	!	!LO:TX:a:i:t=raz	!	!	!	!	!	!	!	!	!	!
8r	.	8f#/	8cc#\	.	4r	.	4r	.	4r	.	4r	.	.
8F#\	.	8a#X/J	8cc#\J	.	.	.	.	.	.	.	.	.	.
4BB/	.	8b\L	8dd\L	.	2r	.	2rG	.	2r	.	8ff#\	Cul-	.
.	.	8b\J	8dd\J	.	.	.	.	.	.	.	16ee\LL	-pa	.
.	.	.	.	.	.	.	.	.	.	.	16ff#\JJ	.	.
8r	.	4r	4r	.	.	.	.	.	.	.	8dd\	sub-	.
8BB/	.	.	.	.	.	.	.	.	.	.	16cc#\	-[[ja]]-	.
!	!	!	!	!	!	!	!	!	!	!	!LO:LB:g=original	!	!
.	.	.	.	.	.	.	.	.	.	.	16dd\	-ia-	.
!	!	!	!	!	!	!	!	!	!LO:TX:b:t=P:problem=brak kreski taktowej	!	!	!	!
!	!	!	!	!	!LO:TX:b:t=P:problem=brak kreski taktowej	!	!LO:LB:g=original	!	!	!	!	!	!
=91	=91	=91	=91	=91	=91	=91	=91	=91	=91	=91	=91	=91	=91
!LO:TX:a:i:t=Solo	!	!	!	!	!	!	!	!	!	!	!	!	!
4C#/	.	1r	1r	.	1r	.	2r	.	1r	.	16ee\LL	-ce-	.
.	.	.	.	.	.	.	.	.	.	.	16ee\	.	.
.	.	.	.	.	.	.	.	.	.	.	16dd\	.	.
.	.	.	.	.	.	.	.	.	.	.	16ee\JJ	.	.
8r	.	.	.	.	.	.	.	.	.	.	16cc#\LL	.	.
.	.	.	.	.	.	.	.	.	.	.	16cc#\	.	.
8AA#X/	X 6	.	.	.	.	.	.	.	.	.	16b\	.	.
.	.	.	.	.	.	.	.	.	.	.	16cc#\JJ	.	.
4BB/	X 6	.	.	.	.	.	8f#\	Cul-	.	.	16dd\LL	.	.
.	.	.	.	.	.	.	.	.	.	.	16dd\	.	.
.	.	.	.	.	.	.	16e\LL	-pa	.	.	16cc#\	.	.
.	.	.	.	.	.	.	16f#\JJ	.	.	.	16dd\JJ	.	.
8r	.	.	.	.	.	.	8d\	Sub-	.	.	16b\LL	.	.
.	.	.	.	.	.	.	.	.	.	.	16b\	.	.
8G#X\	.	.	.	.	.	.	16c#\	-ia-	.	.	16a#X\	.	.
.	.	.	.	.	.	.	16d\	.	.	.	16b\JJ	.	.
!	!	!LO:TX:b:t=P:problem=brak kreski taktowej	!LO:TX:b:t=P:problem=brak kreski taktowej	!	!LO:TX:b:t=P:problem=brak kreski taktowej	!	!	!	!LO:TX:b:t=P:problem=brak kreski taktowej	!	!	!	!
=92	=92	=92	=92	=92	=92	=92	=92	=92	=92	=92	=92	=92	=92
*	*	*	*	*	*	*	*	*	*	*^	*	*	*
4A#X\	.	2r	2r	.	2r	.	16e\LL	-ce-	2r	.	.	16cc#\LL	.	.
.	.	.	.	.	.	.	16e\	.	.	.	.	16cc#\	.	.
.	.	.	.	.	.	.	16d\	.	.	.	.	16b\	.	.
.	.	.	.	.	.	.	16e\JJ	.	.	.	.	16cc#\JJ	.	.
8r	.	.	.	.	.	.	16c#\LL	.	.	.	.	16a#X\LL	.	.
.	.	.	.	.	.	.	16c#\	.	.	.	.	16a#\	.	.
8F#\	.	.	.	.	.	.	16B\	.	.	.	.	16g#X\	.	.
.	.	.	.	.	.	.	16c#\JJ	.	.	.	.	16a#X\JJ	.	.
4BB/	.	4r	4r	.	4r	.	8d\	-re	4r	.	.	8b\	-re	.
.	.	.	.	.	.	.	8d\	.	.	.	.	8b\	.	.
!	!	!	!	!	!	!	!	!	!LO:TX:a:t=P::problem= skreślony tekst&colon; "nulli {nulli}"	!	!	!	!	!
8B\L	.	8dd\L	8ff#\L	.	8B\	cul-	8B\	cul-	8f#\	Cul-	[[nul-	8dd\	cul-	.
8An\J	X 6	8cc#\J	8ff#\J	.	8A#X\	-pe	8c#\	-pa	8f#\	-pa	-li	8b\	-pa	.
!LO:LB:g=original	!	!	!	!	!	!	!	!	!	!	!	!	!	!
!	!	!	!	!	!	!	!	!	!LO:TX:b:t=P:problem=brak kreski taktowej	!	!	!	!	!
=93	=93	=93	=93	=93	=93	=93	=93	=93	=93	=93	=93	=93	=93	=93
!LO:TX:a:t=P:problem=mixed beam	!	!	!	!	!	!	!	!	!	!	!	!	!	!
*	*	*	*	*	*	*	*	*	*	*	*ij	*	*	*
8G\L	.	8b\L	8gg\L	.	8G\	sub-	8d\	Sub-	8g\	Sub-	nul-	8b\	ſub-	.
8E\	.	8cc#\J	8gg\J	.	16G\	-ia-	16d\	-ia-	16g\	.	-li]]	(>16b\	-ia-	.
*	*	*	*	*	*	*	*	*	*	*	*Xij	*	*	*
.	.	.	.	.	16E\	.	16e\	.	16g\	-ia-	.	16cc#\)	-ce-	.
!	!	!	!	!	!	!	!LO:SIC:s=4c#	!	!	!	!	!	!	!
!	!	!	!	!	!	!	!LO:N:vis=8	!	!	!	!	!	!	!
8F#\	X 4	4a/	4ff#\	.	4F#\	-ce-	4c#\	-ce-	4f#\	-ce-	.	4a#X\	-re	.
8FF#/J	X 3	.	.	.	.	.	.	.	.	.	.	.	.	.
!	!	!LO:TX:a:t=P:problem=mixed beam	!LO:TX:a:t=P:problem=mixed beam	!	!	!	!	!	!	!	!	!	!	!
4BB/	.	8b/L	8ff#\L	.	4BB/	-re	4B\	-re	4f#\	-re	.	4b\	.	.
.	.	8d/	8f#/	.	.	.	.	.	.	.	.	.	.	.
8r	.	8dd\	8ff#\	.	4r	.	4r	.	4r	.	.	4r	.	.
8E\	.	8ee\J	8gg\J	.	.	.	.	.	.	.	.	.	.	.
*	*	*	*	*	*	*	*	*	*	*v	*v	*	*	*
!	!	!LO:LB:g=original	!	!	!	!	!	!	!LO:LB:g=original	!	!	!	!
=94	=94	=94	=94	=94	=94	=94	=94	=94	=94	=94	=94	=94	=94
4B\	.	16dd\LL	16ff#\LL	.	0r	.	0r	.	0r	.	0r	.	.
.	.	16cc#\	16ee\	.	.	.	.	.	.	.	.	.	.
.	.	16b\	16dd\	.	.	.	.	.	.	.	.	.	.
!	!	!LO:TX:a:t=P:problem=krzyżyk nad nutą	!	!	!	!	!	!	!	!	!	!	!
.	.	16a#X\JJ	16cc#\JJ	.	.	.	.	.	.	.	.	.	.
8r	.	8dd\L	8b/L	.	.	.	.	.	.	.	.	.	.
8F#\	.	8cc#\J	8a#X/J	.	.	.	.	.	.	.	.	.	.
8B\L	.	8dd\L	8b/L	.	.	.	.	.	.	.	.	.	.
8A#X\	X 6	8ff#\	8cc#/J	.	.	.	.	.	.	.	.	.	.
8B\	.	8ff#\	8dd\L	.	.	.	.	.	.	.	.	.	.
8G\J	X 7	8gg\J	16cc#\L	.	.	.	.	.	.	.	.	.	.
.	X 6	.	16b\JJ	.	.	.	.	.	.	.	.	.	.
=95	=95	=95	=95	=95	=95	=95	=95	=95	=95	=95	=95	=95	=95
!	!	!	!LO:TX:a:t=P:problem=mixed beam	!	!	!	!	!	!	!	!	!	!
4F#\	.	4ff#\	8cc#\L	.	.	.	.	.	.	.	.	.	.
.	.	.	8f#/J	.	.	.	.	.	.	.	.	.	.
!LO:TX:a:t=P:problem=mixed beam	!	!	!	!	!	!	!	!	!	!	!	!	!
8BB/L	.	8dd\L	8ff#\L	.	.	.	.	.	.	.	.	.	.
8F#\J	.	8cc#\J	16gg\L	.	.	.	.	.	.	.	.	.	.
.	.	.	16ff#\JJ	.	.	.	.	.	.	.	.	.	.
!LO:TX:a:t=P:problem=mixed beam	!	!	!	!	!	!	!	!	!	!	!	!	!
8G\L	.	8b\L	16gg\LL	.	.	.	.	.	.	.	.	.	.
.	.	.	16ff#\	.	.	.	.	.	.	.	.	.	.
8E\	.	8cc#\J	16ee\	.	.	.	.	.	.	.	.	.	.
.	.	.	16dd\JJ	.	.	.	.	.	.	.	.	.	.
8F#\	X 4	4a#X/	8.cc#\L	.	.	.	.	.	.	.	.	.	.
8FF#/J	X 3	.	.	.	.	.	.	.	.	.	.	.	.
.	.	.	16b\Jk	.	.	.	.	.	.	.	.	.	.
!	!	!LO:TX:b:t=P:problem=podwójna kreska taktowa	!	!	!LO:TX:b:t=P:problem=brak kreski taktowej	!	!LO:TX:b:t=P:problem=brak kreski taktowej	!	!LO:TX:b:t=P:problem=brak kreski taktowej	!	!	!	!
=96	=96	=96||	=96	=96	=96	=96	=96	=96	=96	=96	=96	=96	=96
!LO:TX:i:a:t=Tutti	!	!	!	!	!	!	!	!	!	!	!	!	!
4BB/	.	4b\	8b\L	.	2r	.	2r	.	2r	.	2r	.	.
.	.	.	16dd\L	.	.	.	.	.	.	.	.	.	.
.	.	.	16ee\JJ	.	.	.	.	.	.	.	.	.	.
8r	.	8r	8ff#\L	.	.	.	.	.	.	.	.	.	.
8AAn/	.	8g/	8cc#\J	.	.	.	.	.	.	.	.	.	.
!	!	!	!	!	!	!	!	!	!	!	!LO:LB:g=original	!	!
4D\	.	4f#/	4dd\	.	8D/	nul-	8d\	nul-	8f#\	nul-	8a\	nul-	.
.	.	.	.	.	8D/	-li	8d\	-li	8f#\	-li	8a\	-li	.
*	*	*	*	*	*	*ij	*	*ij	*	*ij	*	*ij	*
8r	.	4r	4r	.	8C#/	nul-	8e\	nul-	8e\	nul-	8a\	nul-	.
8A\	.	.	.	.	8AA/	-li	8c#\	-li	8e\	-li	8a\	-li	.
*	*	*	*	*	*	*Xij	*	*Xij	*	*Xij	*	*Xij	*
!	!	!LO:TX:b:t=P:problem=brak kreski taktowej	!	!	!	!	!LO:LB:g=original	!	!	!	!	!	!
=97	=97	=97	=97	=97	=97	=97	=97	=97	=97	=97	=97	=97	=97
!	!	!LO:SIC:s=8ddL	!	!	!	!	!	!	!	!	!	!	!
!	!	!LO:N:vis=4	!	!	!	!	!	!	!	!	!	!	!
4D\	.	8dd\	8ff#\L	.	8D/	pror-	8d\	pror-	8f#\	pror-	8a\	pror-	.
!	!	!LO:SIC:s=8ddJ	!	!	!	!	!	!	!	!	!	!	!
!	!	!LO:N:vis=4	!	!	!	!	!	!	!	!	!	!	!
.	.	8dd\	8ff#\J	.	8D/	-sus	8d\	-s(us)	8f#\	-sus	8a\	-sus	.
!	!	!	!LO:LB:g=original	!	!	!	!	!	!	!	!	!	!
8r	.	16cc#\LL	16ee\LL	.	4r	.	4r	.	4r	.	4r	.	.
.	.	16b\	16dd\	.	.	.	.	.	.	.	.	.	.
8AA/	.	16a\	16cc#\	.	.	.	.	.	.	.	.	.	.
.	.	16cc#\JJ	16ee\JJ	.	.	.	.	.	.	.	.	.	.
!	!	!	!	!	!	!	!	!	!LO:TX:i:a:t=Solo:rj	!	!	!	!
4D\	.	8dd\L	8ff#\L	.	2rBB	.	2r	.	8a\	Cul-	2r	.	.
.	.	8dd\J	8ff#\J	.	.	.	.	.	(>16g\LL	-pa	.	.	.
.	.	.	.	.	.	.	.	.	16a\JJ)	.	.	.	.
8r	.	4r	4r	.	.	.	.	.	8f#\	Sub-	.	.	.
8D\	.	.	.	.	.	.	.	.	16e\	.	.	.	.
.	.	.	.	.	.	.	.	.	16f#\	-ia-	.	.	.
!	!	!LO:TX:b:t=P:problem=brak kreski taktowej	!	!	!	!	!LO:TX:b:t=P:problem=brak kreski taktowej	!	!	!	!	!	!
=98	=98	=98	=98	=98	=98	=98	=98	=98	=98	=98	=98	=98	=98
4E\	X 6	1r	1r	.	2rBB	.	1r	.	16g\LL	-ce-	1r	.	.
.	.	.	.	.	.	.	.	.	16g\	.	.	.	.
.	.	.	.	.	.	.	.	.	16f#\	.	.	.	.
.	.	.	.	.	.	.	.	.	16g\JJ	.	.	.	.
8r	.	.	.	.	.	.	.	.	16e\LL	.	.	.	.
.	.	.	.	.	.	.	.	.	16e\	.	.	.	.
8C#/	X 6	.	.	.	.	.	.	.	16d\	.	.	.	.
.	.	.	.	.	.	.	.	.	16e\JJ	.	.	.	.
4D/	.	.	.	.	8A\	cul-	.	.	16f#\LL	.	.	.	.
.	.	.	.	.	.	.	.	.	16f#\	.	.	.	.
.	.	.	.	.	(>16G\LL	-pe	.	.	16e\	.	.	.	.
.	.	.	.	.	16A\JJ)	.	.	.	16f#\JJ	.	.	.	.
!	!	!	!	!	!LO:LB:g=original	!	!	!	!	!	!	!	!
8r	.	.	.	.	8F#\	sub-	.	.	16d\LL	.	.	.	.
.	.	.	.	.	.	.	.	.	16d\	.	.	.	.
8BB/	.	.	.	.	16E\	-ia-	.	.	16c#\	.	.	.	.
.	.	.	.	.	16F#\	.	.	.	16d\JJ	.	.	.	.
!	!	!LO:TX:b:t=P:problem=brak kreski taktowej	!LO:TX:b:t=P:problem=brak kreski taktowej	!	!	!	!LO:TX:b:t=P:problem=brak kreski taktowej	!	!	!	!	!	!
=99	=99	=99	=99	=99	=99	=99	=99	=99	=99	=99	=99	=99	=99
4C#/	X 6	2r	2r	.	16G\LL	-ce-	2r	.	16e\LL	.	2r	.	.
.	.	.	.	.	16G\	.	.	.	16e\	.	.	.	.
.	.	.	.	.	16F#\	.	.	.	16d\	.	.	.	.
.	.	.	.	.	16G\JJ	.	.	.	16e\JJ	.	.	.	.
8r	.	.	.	.	16E\LL	.	.	.	16c#\LL	.	.	.	.
.	.	.	.	.	16E\	.	.	.	16c#\	.	.	.	.
8AA/	.	.	.	.	16D\	.	.	.	16B\	.	.	.	.
.	.	.	.	.	16E\JJ	.	.	.	16c#\JJ	.	.	.	.
!LO:LB:g=original	!	!	!	!	!	!	!	!	!	!	!	!	!
!	!	!	!	!	!	!	!	!	!LO:LB:g=original	!	!	!	!
4D/	.	4r	4r	.	8F#\	.	4r	.	8d\	-re	4r	.	.
.	.	.	.	.	8F#\	-re	.	.	8d\	.	.	.	.
8d\L	.	8ff#\L	8aa\L	.	8d\	cul-	8d\	Cul-	8f#\	cul-	8a\	Cul-	.
!	!	!	!	!	!	!	!	!	!	!LO:SIC:s=-pa	!	!	!
8c#\J	X 6	8ee\J	8aa\J	.	8c#\	-pe	8c#\	-pa	8e\	-pe	8a\	-pa	.
=100	=100	=100	=100	=100	=100	=100	=100	=100	=100	=100	=100	=100	=100
!LO:TX:a:t=P:problem=mixed beam	!	!	!	!	!	!	!	!	!	!	!	!	!
8B\L	.	8dd\L	16gg\LL	.	8B\	sub-	8B\	Sub-	8g\	Sub-	8b\	Sub-	.
.	.	.	16aa\	.	.	.	.	.	.	.	.	.	.
8G\	.	8ee\J	16gg\	.	16B\	-ia-	16B\	-ia-	16g\	.	16b\	-ia-	.
.	.	.	16ff#\JJ	.	16G\	.	16B\	.	16g\	-ia-	16b\	.	.
8A\	.	4cc#\	16ee\LL	.	4A\	-ce-	4c#\	-ce-	4e\	-ce-	4a\	-ce-	.
.	.	.	16gg\	.	.	.	.	.	.	.	.	.	.
8AA/J	.	.	16ff#\	.	.	.	.	.	.	.	.	.	.
.	.	.	16ee\JJ	.	.	.	.	.	.	.	.	.	.
4D/	.	4dd\	4dd\	.	4D/	-r(e)	4d\	-re	4f#\	-re	4a\	-re	.
!	!	!	!	!	!	!	!	!	!LO:TX:a:t=P:problem=laska z prawej strony	!	!	!	!
8B\L	.	4r	4r	.	8B\	nul-	8B\	nul-	8f#\	nul-	8dd\	nul-	.
8A#X\J	X 6	.	.	.	8A#X\	-li	8c#\	-li	8f#\	-li	8cc#\	-li	.
=101	=101	=101	=101	=101	=101	=101	=101	=101	=101	=101	=101	=101	=101
!	!	!LO:TX:a:t=P:problem=takt dopisany na dodatkowej pięciolinii	!	!	!	!	!	!	!	!	!	!	!
*	*	*	*	*	*	*ij	*	*ij	*	*ij	*	*ij	*
8B\L	.	4r	4r	.	8B\	nul-	8B\	nul-	8f#\	nul-	8dd\	nul-	.
8F#\J	.	.	.	.	8F#\	-li	8A#X\	-li	8f#\	-li	8cc#\	-li	.
*	*	*	*	*	*	*Xij	*	*Xij	*	*Xij	*	*Xij	*
4r	.	16b/LL	24dd\LL	.	4r	.	4r	.	4r	.	4r	.	.
.	.	.	24ee\	.	.	.	.	.	.	.	.	.	.
.	.	16b/	.	.	.	.	.	.	.	.	.	.	.
.	.	.	24dd\JJ	.	.	.	.	.	.	.	.	.	.
!	!	!LO:SIC:s=16a#	!	!	!	!	!	!	!	!	!	!	!
.	.	16a/	24cc#\LL	.	.	.	.	.	.	.	.	.	.
.	.	.	24dd\	.	.	.	.	.	.	.	.	.	.
.	.	16a/JJ	.	.	.	.	.	.	.	.	.	.	.
.	.	.	24cc#\JJ	.	.	.	.	.	.	.	.	.	.
4r	.	8b/L	8dd\L	.	4r	.	4r	.	4r	.	4r	.	.
.	.	8a#X/J	8cc#\J	.	.	.	.	.	.	.	.	.	.
!	!	!	!	!	!LO:LB:g=original	!	!	!	!	!	!	!	!
8B\L	.	4r	4r	.	8B\	nul-	8B\	nul-	8f#\	nul-	8dd\	Nul-	.
8A#X\J	X 6	.	.	.	8A#X\	-li	8c#\	-li	8f#\	-li	8cc#\	-li	.
=102	=102	=102	=102	=102	=102	=102	=102	=102	=102	=102	=102	=102	=102
*	*	*	*	*	*	*^	*	*	*	*	*	*	*
*	*	*	*	*	*	*ij	*	*	*ij	*	*ij	*	*ij	*
8B\L	.	4r	4r	.	8B\	nul-	.	8B\	nul-	8f#\	nul-	8dd\	Nul-	.
8F#\J	.	.	.	.	8F#\	-li	.	8A#X\	-li	8f#\	-li	8cc#\	-li	.
*	*	*	*	*	*	*Xij	*	*	*Xij	*	*Xij	*	*Xij	*
4r	.	16b/LL	24dd\LL	.	4r	.	.	4r	.	4r	.	4r	.	.
.	.	.	24ee\	.	.	.	.	.	.	.	.	.	.	.
.	.	16b/	.	.	.	.	.	.	.	.	.	.	.	.
.	.	.	24dd\JJ	.	.	.	.	.	.	.	.	.	.	.
.	.	16a#X/	24cc#\LL	.	.	.	.	.	.	.	.	.	.	.
.	.	.	24dd\	.	.	.	.	.	.	.	.	.	.	.
.	.	16a#/JJ	.	.	.	.	.	.	.	.	.	.	.	.
.	.	.	24cc#\JJ	.	.	.	.	.	.	.	.	.	.	.
!	!	!LO:LB:g=original	!	!	!	!	!	!	!	!	!	!LO:LB:g=original	!	!
4r	.	8b/L	8dd\L	.	4r	.	.	4r	.	4r	.	4r	.	.
.	.	8a#X/J	8cc#\J	.	.	.	.	.	.	.	.	.	.	.
8B\L	.	8dd\L	8dd\L	.	8B\	[[nul-	cul-	8B\	cul-	8f#\	Cul-	8dd\	Cul-	.
!	!	!	!	!	!LO:SIC:s=8A	!	!	!	!	!	!	!	!	!
8An\J	.	8cc#\J	8aa\J	.	8A#X\	-le]]	-pe	8c#\	-pa	8f#\	-pa	8cc#\	-pa	.
!	!	!	!	!	!	!	!	!LO:LB:g=original	!	!	!	!	!	!
*	*	*	*	*	*	*v	*v	*	*	*	*	*	*	*
=103	=103	=103	=103	=103	=103	=103	=103	=103	=103	=103	=103	=103	=103
!LO:TX:a:t=P:problem=mixed beam	!	!	!	!	!	!	!	!	!	!	!	!	!
8G\L	.	8dd\L	8bb\L	.	8G\	sub-	8d\	Sub-	8g\	Sub-	8b\	Sub-	.
.	X 6	.	.	.	.	.	.	.	.	.	.	.	.
8E\	X 5	8ee\J	8bb\J	.	16G\	-ia-	16d\	-ia-	16g\	.	16b\	-ia-	.
.	.	.	.	.	16E\	.	16e\	.	16g\	-ia-	16cc#\	.	.
8F#\	.	4cc#\	4aa#X\	.	4F#\	-ce-	4c#\	-ce-	4f#\	-ce-	4a#X\	-ce-	.
.	X 4	.	.	.	.	.	.	.	.	.	.	.	.
8FF#/J	X 3	.	.	.	.	.	.	.	.	.	.	.	.
4BB/	.	4dd\	4bb\	.	4BB/	-re	4B\	-re	4f#\	-re	4b\	-re	.
*	*	*	*	*	*	*	*	*	*	*ij	*	*	*
8B\L	.	8dd\L	8ff#\L	.	8B\	cul-	8B\	cul-	8f#\	Cul-	8dd\	cul-	.
!	!	!	!	!	!	!	!	!	!	!	!	!LO:SIC:s=-pa	!
8An\J	.	8cc#\J	8aa#\J	.	8A#X\	-pe	8c#\	-pa	8f#\	-pa	8cc#\	-pe	.
=104	=104	=104	=104	=104	=104	=104	=104	=104	=104	=104	=104	=104	=104
!	!	!	!	!	!	!	!	!	!	!	!LO:SIC:s=8b	!	!
!LO:TX:a:t=P:problem=mixed beam	!	!	!	!	!	!	!	!	!LO:N:vis=8.	!	!	!	!
8G\L	.	8dd\L	8bb\L	.	8G\	sub-	8d\	sub-	8g\	Sub-	8b\	Sub-	.
8E\	.	8ee\J	8bb\J	.	16G\	.	16d\	-ia-	16g\	-ia-	16b\	-ia-	.
.	.	.	.	.	16E\	-ia-	16e\	.	16g\	.	16cc#\	.	.
8F#\	.	4cc#\	4aa#X\	.	4F#\	-ce-	4c#\	-ce-	4f#\	-ce-	4a#X\	-ce-	.
.	X 4	.	.	.	.	.	.	.	.	.	.	.	.
8FF#/J	X 3	.	.	.	.	.	.	.	.	.	.	.	.
4BB/	.	4dd#X\	4bb\	.	4BB/	-re	4B\	-re	4f#\	-re	4b\	-re	.
*	*	*	*	*	*	*	*	*	*	*Xij	*	*	*
!	!	!	!	!	!LO:TX:a:t=P:problem=kreska z obustronną repetycją	!	!	!	!	!	!	!	!
4r	.	4r	4r	.	4r	.	4r	.	4r	.	4r	.	.
==	==	==	==	==	==	==	==	==	==	==	==	==	==
*-	*-	*-	*-	*-	*-	*-	*-	*-	*-	*-	*-	*-	*-
!!!system-decoration: [(s1,s2,s3,s4)][(s5,s6)][(s7)]
!!!RDF**kern: > = above
!!!RDF**kern: < = below
!!!EED: Mateusz Mrugas
!!!EEV: 2020-11-06
!!!ENC: Kamil Watkowski
!!!END: 2020-04-20
!!!YEC: Copyright 2022 Narodowy Instytut Fryderyka Chopina (https://polishscores.org)
!!!YEM: License CC-BY-4.0 (https://creativecommons.org/licenses/by/4.0)
